/* XPM */
static char *d5cd336721fe4a2f94944d10b81039c2[] = {
/* columns rows colors chars-per-pixel */
"64 64 231 2 ",
"   c #2B0E1B",
".  c #360F1B",
"X  c #231415",
"o  c #2A1315",
"O  c #2A1B16",
"+  c #25141A",
"@  c #2A141F",
"#  c #2A1A1B",
"$  c #271C17",
"%  c #33161B",
"&  c #25170E",
"*  c #29211C",
"=  c #37261D",
"-  c #363B1D",
";  c #250D26",
":  c #2C0D26",
">  c #260E29",
",  c #2B0E2A",
"<  c #340B26",
"1  c #3B0B26",
"2  c #330D2A",
"3  c #3B0D29",
"4  c #251225",
"5  c #2B1324",
"6  c #2D1B23",
"7  c #26112B",
"8  c #2A122B",
"9  c #2D192B",
"0  c #341323",
"q  c #3A1324",
"w  c #34122B",
"e  c #3C122C",
"r  c #311B2C",
"t  c #341E25",
"y  c #2E1531",
"u  c #2F1832",
"i  c #331632",
"p  c #3B1431",
"a  c #331B33",
"s  c #2C2328",
"d  c #352425",
"f  c #3B2C24",
"g  c #3B2529",
"h  c #3C2B2B",
"j  c #362626",
"k  c #3F312A",
"l  c #3B3429",
"z  c #312532",
"x  c #352B32",
"c  c #3B3834",
"v  c #420B26",
"b  c #440E2B",
"n  c #4B0E29",
"m  c #4A0D26",
"M  c #520F2C",
"N  c #5A0F27",
"B  c #43122D",
"V  c #4B122D",
"C  c #41182A",
"Z  c #53132D",
"A  c #5C122D",
"S  c #441331",
"D  c #4C1432",
"F  c #4F1933",
"G  c #541532",
"H  c #5B1532",
"J  c #551A36",
"K  c #5C1935",
"L  c #5B1B39",
"P  c #541C38",
"I  c #62142D",
"U  c #6D182D",
"Y  c #621632",
"T  c #6A1633",
"R  c #641A36",
"E  c #6C1B34",
"W  c #631C39",
"Q  c #6B1D3A",
"!  c #741C35",
"~  c #7A1C34",
"^  c #7B1E39",
"/  c #741E3A",
"(  c #7F192F",
")  c #442C2C",
"_  c #43352D",
"`  c #453A2A",
"'  c #433232",
"]  c #493C35",
"[  c #65203A",
"{  c #6F2139",
"}  c #7F2135",
"|  c #74213A",
" . c #7C223B",
".. c #3C471E",
"X. c #3B4527",
"o. c #3F562D",
"O. c #3B4836",
"+. c #3D5434",
"@. c #444927",
"#. c #44582C",
"$. c #57542F",
"%. c #414A39",
"&. c #4C483B",
"*. c #584B39",
"=. c #475936",
"-. c #555633",
";. c #5B5633",
":. c #545A36",
">. c #5C5A35",
",. c #5C553C",
"<. c #565A39",
"1. c #5C5B39",
"2. c #55533C",
"3. c #615733",
"4. c #635B35",
"5. c #63543D",
"6. c #645E39",
"7. c #685F3A",
"8. c #695E37",
"9. c #496439",
"0. c #5C613B",
"q. c #546B3D",
"w. c #53713F",
"e. c #676036",
"r. c #6A6336",
"t. c #65623B",
"y. c #6C653C",
"u. c #6E693D",
"i. c #70673D",
"p. c #71693E",
"a. c #716A3E",
"s. c #74713C",
"d. c #742542",
"f. c #5D4E43",
"g. c #5D5142",
"h. c #5F5941",
"j. c #4F4047",
"k. c #625543",
"l. c #655C43",
"z. c #695D45",
"x. c #675C4B",
"c. c #604D4F",
"v. c #4F6642",
"b. c #546942",
"n. c #587347",
"m. c #5F6050",
"M. c #666242",
"N. c #6D6641",
"B. c #6D6941",
"V. c #6C634A",
"C. c #6F684B",
"Z. c #706643",
"A. c #736C42",
"S. c #786F45",
"D. c #71674C",
"F. c #746D4B",
"G. c #786F4E",
"H. c #627C4B",
"J. c #697C4D",
"K. c #64774A",
"L. c #767142",
"P. c #767145",
"I. c #767143",
"U. c #7A7345",
"Y. c #7D7A46",
"T. c #767149",
"R. c #7C754A",
"E. c #7D7949",
"W. c #7E794A",
"Q. c #6F6451",
"!. c #746954",
"~. c #7B7453",
"^. c #7B7558",
"/. c #821D35",
"(. c #8A1F33",
"). c #852137",
"_. c #8C2237",
"`. c #83233A",
"'. c #8C243A",
"]. c #84283D",
"[. c #8D2A3C",
"{. c #922336",
"}. c #92263A",
"|. c #942A3D",
" X c #9B2A3B",
".X c #9A2739",
"XX c #9F313E",
"oX c #A22D3B",
"OX c #A82F3C",
"+X c #A32D37",
"@X c #A5313D",
"#X c #AB323D",
"$X c #AD393D",
"%X c #B43B3F",
"&X c #852B42",
"*X c #952B42",
"=X c #992C42",
"-X c #9B3242",
";X c #9A3542",
":X c #AB3542",
">X c #A73944",
",X c #B43C44",
"<X c #B53B4A",
"1X c #A62D40",
"2X c #A94049",
"3X c #B94449",
"4X c #B64A52",
"5X c #B05458",
"6X c #807D4D",
"7X c #817A4B",
"8X c #807949",
"9X c #827C51",
"0X c #817658",
"qX c #BB5B62",
"wX c #C14749",
"eX c #C95554",
"rX c #C24F4F",
"tX c #D0615E",
"yX c #C96968",
"uX c #D77775",
"iX c #CF6E6D",
"pX c #E57971",
"aX c #6A864D",
"sX c #6C8951",
"dX c #DD8887",
"fX c #E99499",
"gX c #FFA79E",
"hX c #F6AFAF",
"jX c #FFC3B6",
"kX c #FFCAC9",
"lX c #FFD8D4",
/* pixels */
"u.u.i.U.7X7X7XE.R.A.B.a.L.L.u.y.u.u.y.i.y.4.4.u.u.y.y.y.;.-.-.-.-.<.1.B.u.u.i.u.P.A.t.3.3.y.U.U.L.a.i.i.y.4.3.Z.B.t.t.>.$.;.8.8.",
"u.u.a.L.7XE.E.L.A.A.u.u.a.a.u.u.t.u.u.u.B.t.4.u.u.u.B.B.u.t.;.<.<.6.t.y.y.p.u.A.R.P.y.y.t.A.U.U.A.y.u.u.y.4.3.y.y.8.4.6.y.N.B.B.",
"p.i.8XR.U.u.u.E.6XE.a.A.U.P.p.u.4.3.4.4.y.u.y.y.y.u.L.W.6XU.B.y.8.>.3.4.y.u.u.P.E.7X7XR.p.u.a.A.y.8.4.4.y.t.<.<.>.>.4.t.u.u.Z.A.",
"y.A.S.P.A.u.u.L.U.E.i.p.A.A.u.4.4.4.3.4.6.6.6.6.y.A.R.7XY.Y.p.y.4.4.4.4.8.e.y.A.A.P.L.p.y.u.u.u.u.4.4.3.>.>.;.-.<.>.4.e.u.p.p.A.",
"y.u.u.u.u.u.y.y.U.U.p.Z.B.y.y.u.t.y.t.6.<.<.<.1.N.P.E.6XY.E.R.y.y.y.y.4.4.4.y.y.B.y.y.t.y.B.y.u.6Xa.e.4.>.>.;.>.t.y.T.E.6XU.A.p.",
"4.y.u.r.U.E.u.u.u.u.4.3.3.y.y.y.t.t.>.>.1.<.1.1.8.y.A.E.7XU.u.y.y.y.y.y.y.y.4.4.3.$.-.$.;.y.y.u.E.Y.6X6XB.y.y.t.y.y.u.u.E.L.u.y.",
"4.y.U.U.E.E.E.p.y.4.4.6.1.6.1.1.6.t.t.t.y.y.6.3.>.y.p.p.a.p.y.4.4.y.y.u.8.8.4.3.4.>.<.<.;.y.u.u.s.8X7XE.L.A.y.y.Z.y.y.p.P.A.4.4.",
"8.y.U.R.E.6X6Xp.u.4.8.6.>.<.<.<.<.t.y.u.y.y.t.4.4.t.A.A.A.p.y.4.3.t.t.y.3.3.6.4.t.0.1.<.<.t.y.p.a.7X7XU.U.a.y.A.A.p.i.p.A.u.3.3.",
"3.4.4.u.a.7X7XA.u.Z.B.t.>.1.<.<.<.<.t.y.p.p.y.y.u.u.B.N.R.R.P.S.t.3.4.3.3.>.<.@.@...X...@.<.B.T.W.7XU.i.i.u.u.U.P.U.U.p.t.3.3.4.",
"8.4.y.B.A.A.a.p.p.p.u.y.t.t.<.<.<.<.t.u.p.p.A.R.E.y.` ` @.M.A.p.y.4.4.y.1.#.#.J.J.J.J.K.:.@.@.M.T.T.S.A.p.u.u.P.U.U.U.P.A.y.y.y.",
"y.u.y.B.B.y.u.u.p.a.p.u.y.t.>.>.>.>.t.y.y.i.A.R.7X1.$ s * *.G.p.u.e.4.1.q.J.sXaXaXaXH.n.=.=.=.:.:.1.B.B.u.u.p.U.S.U.U.U.P.p.A.S.",
"A.y.4.3.3.4.y.p.U.6Xa.p.y.4.y.y.N.B.y.y.4.t.y.p.7XM.* x x ] *.N.y.y.1.:.H.sXsXsXH.q.9.9.v.v.#.X.- @.<.>.t.u.y.p.u.p.A.U.P.A.A.U.",
"B.y.y.8.3.4.i.R.7X7XE.a.y.3.4.8.8.y.y.y.4.4.t.W.W.M.* s x s $ 2.1.t.0.b.J.aXH.w.o.#.w.n.b.=.@.<.0.1.1.<.1.6.6.B.y.i.p.p.A.B.A.A.",
"4.4.N.y.y.y.i.a.L.L.E.A.y.y.4.3.4.4.t.y.y.y.y.A.A.F.x.# z x j &.2.<.q.n.H.w.#.o.9.n.n.q.o.@.K.C.1.1.1.<.<.1.1.6.4.4.y.p.u.p.A.A.",
":.1.t.y.A.B.p.i.u.p.W.A.y.B.4.4.3.4.t.i.B.B.B.A.B.N.V.f.s z x * c X.=.n.9.o.=.9.n.n.b.:.0.B.E.R.6.1.>.1.1.1.>.4.4.4.u.p.a.a.p.A.",
"<.<.<.t.B.p.u.u.u.u.A.B.u.y.y.y.y.B.Z.Z.l.5.5.5.k.*.*.g.' z z s c O.+.=.+.+.=.=.v.v.=.~.P.E.U.P.y.y.N.N.M.>.;.4.y.A.W.7XE.E.U.A.",
"M.1.<.t.B.P.U.a.y.4.4.y.y.y.y.y.B.6.5.f.d o . . . o o c.j.6 z s c O.O.+.+.%.O.%.&.m.V.Q.N.A.A.u.y.y.y.B.t.>.6.y.y.A.7X7XU.U.a.A.",
"B.>.;.t.S.R.R.a.t.>.3.y.y.B.B.N.5.*.f % q F K K P B 0 @   4 z z s c O.O.O.c j s # # % % *.l.l.M.N.y.B.B.4.4.4.y.t.u.U.U.A.a.u.a.",
"A.u.y.A.R.R.E.p.u.y.6.y.N.B.G.g.o . q V Z Y Q Q R K D e w 5 9 z z c x x x 6 r e e C C e q o ' *.2.1.6.N.4.3.4.B.y.r.u.u.u.u.p.A.",
"a.p.y.u.A.p.A.p.u.y.1.1.6.5.k.o q B G A E  .^ ^ ! T G D e 8 8 z z z 9 9 r e B B D V D S S e 5 o &.l.N.B.y.y.y.A.p.u.u.u.u.u.S.A.",
"L.p.B.y.B.A.u.p.p.y.6.,.,.] d q B Z Q ! ~ `.'.'.). .H V e , 7 7 8 4 8 w S V V G J G D D D D B 0 t ] V.B.u.y.A.U.U.L.L.L.u.u.i.A.",
"y.e.4.4.4.y.A.u.p.y.6.,.&.h 0 B Z I  .).[.|.{. X X[.U N v < : : : : 1 V Z A Y Y H H M G Z V B e 5 g g.N.y.p.p.R.E.E.E.E.u.p.4.8.",
"y.t.3.3.4.u.E.E.R.u.t.V.h 0 e b Y ~ |.2XuXqXXX:X@X>X>X`.I Z n V n m Z | ].[.].).! ! Q Y A Z V b e 0 g k.6.y.y.p.U.Y.E.E.u.u.4.4.",
"T.y.y.y.t.A.a.E.E.R.D.] t e B M E } ;XqXfXiX2X3X$X$X,X>X[. . .| | |  .*X|.{..X_._.~ ^ T Y W V b B e 0 j l.y.A.R.U.U.L.A.p.p.A.U.",
"R.A.u.p.p.i.u.U.Y.9Xx.) 0 B V A &X[.5XhXlXhXyX4X3X%X%X3X1X|. X|.|.|.*X XoXOX:XoX{./. .~ E R Z B D e w g *.l.B.R.U.A.p.p.p.a.U.E.",
"W.R.U.i.i.A.p.u.U.0X) 0 q b K T [.;XfXkXlXlXhXuX3X%XwXeX3X,X#X+X X XoX1X<X,XOX+X X}./.~ ! T H D V B e   O x.8.r.r.i.y.B.U.U.U.E.",
"L.a.A.A.B.y.t.y.A.z.) e B V T ].'.}.|.fXkXdXqX,X,X3XtXpXuXyXrX#XOX#XOX,X,X+XoX X X'./.^ ^ / W Z V B e q 6 x.B.u.i.r.y.Z.u.p.A.U.",
"A.A.e.t.8.8.4.8.N.= 0 B V G Q  .*X*X|.>XdXiX4X,X,X3XtXgXjXtXeX3X,X3X,X:X@X X=X|.[.).`.^ ^ ! E [ D B B w 5 X F.p.u.y.4.t.8.t.A.S.",
"U.u.4.4.4.3.3.6.l.= . B V H Q E `.*X|.-X4X>XoX:X#X,XeXpXpXeXeXwXOX@X+X X.X X*X/.].`.).^ ! T Y K V B e w r X G.y.t.t.>.6.6.3.y.y.",
"u.L.R.S.y.4.y.6.h.= q S D G G M I  .`.}.-X.X XoX#X#X%XeXrX3X%X%X#X X.X X|.[.&XN I |  .~ ~ T R Z b e 2 w a + V.>.>.;.>.N.y.3.t.8.",
"y.A.E.P.L.A.S.B.x.= q S D S e < 3 Z E } _._.{.{.{.@X+X#X3X#XOX#X:X.X{.'.&X[ V 1 v Z E ~ ~ ~ Q M V 3 2 w a + V.<.<.<.t.B.y.t.r.r.",
"8.Z.R.E.R.R.U.Z.V.= q D D B 2 w w 1 m Q &X].'.}. X>X@X+X#X#X#X:X-X[.]. .Z e 2 8 3 V | ~ ~ / Y G b S w r a X V.>.<.<.N.B.A.u.t.y.",
"4.3.4.4.8.P.a.Z.D.d 0 e B S 3 2 2 2 < B Z E ].|.*X|. X X+X+XoX-X].A Z V < , > , 2 v Q E T Y G V B e , w a X V.B.t.4.Z.Z.p.t.3.4.",
"t.8.3.8.y.A.A.S.~.f 5 2 B F S S w , , : 1 Z ! _./.'.{. X.X X}.].R v < 8 > > > : e G W Y Y H V B e 2 , 8 a X V.Z.7.3.8.y.p.u.t.y.",
"y.4.4.y.y.i.U.R.^.f 5 2 B G G D e 2 , : < V E `.( _.'.{.{.}.).E V 2 , 7 7 7 > 2 B K R Y H Z b S 2 , , y a + V.u.8.3.8.y.u.u.y.B.",
"U.a.p.A.A.y.A.B.C.= @ w 3 D K K B 2 2 < < Z !  .).).'._.(.).~ I v 2 , > , 2 < B G H H A H G b e < , , y a + V.4.4.3.y.u.y.u.u.p.",
"U.L.u.y.N.t.6.t.M.&.j w 2 S G W D v 3 1 n R ^ `. .~ )._._.}.).! Z 3 3 2 1 B V [ Q T I Y G D 3 p w , , 9 a X l.>.3.8.B.P.L.L.u.u.",
"7XR.A.u.6.;.<.<.6.V.' 0 w 3 b K J J J G Q / ^ ~ { A  .`.'.=X'.].{ K D D J L R d.| T Y W V 3 2 p 2 8 8 r r j z.t.B.S.T.E.E.Y.L.U.",
"E.E.U.y.>.<.<.<.>.l.) 5 w e e V G [ Q | | ! Q K V v Z  .].)./.).} | Q K L H H Q T R H G e e w w 8 8 8 8 # !.Z.u.R.R.E.E.E.E.R.R.",
"A.u.u.y.N.t.<.M.u.V.) 5 5 2 w e V Z A | ~ ! K n < 1 v R ~ ~ `./.).~ T H Z Z H A Y K V B e w w , 8 7 7 + & D.y.u.p.p.E.E.U.a.p.A.",
"a.u.u.u.u.y.t.N.B.N.] t 5 8 : w 3 V Z R ! E Z 3 < e 1 V T ! ! ! ! I A Z Z Z H A H G V B w > , > > 8 5 6 ` S.U.L.p.p.U.P.S.A.y.p.",
"y.p.p.y.p.u.u.u.p.Z.Q.h r 8 8 , : S V Z I Q Z 1 3 B v V Y Y I I Y H G V V V Z Z Z V B e , > > > , 9 5 k ^.9XR.U.p.u.y.y.y.y.A.p.",
"t.U.7X7XE.u.u.u.y.6.k.d 9 9 > y > 2 V Z A H K W R R R R R H H A H K D 3 < e D b v B e 2 ; > > , i a @ k N.A.R.i.u.u.3.4.3.3.y.u.",
"4.S.U.U.U.u.u.u.y.8.5.= + r 7 > 8 2 S G G G G K R E T Y G D G K R K B 2 : w S B e e e : > > 7 a a 5 h Q.N.A.L.u.u.y.4.3.3.4.8.t.",
"4.u.p.u.u.u.a.u.y.y.4.,.h 5 9 , > : B D G b < B H R L V < < V H Y K B 2 , 8 w e e e w > > 7 8 a a 5 _ V.B.u.u.p.u.u.y.8.4.4.4.3.",
"u.p.R.W.W.W.W.A.u.p.R.^.` + r 7 7 5 w B D B : 2 B P P < > > e D G P e > > 7 > w w w > > > 8 8 a 5 h g.4.B.L.A.U.U.U.T.B.y.y.y.B.",
"u.u.A.u.a.W.7Xa.u.u.p.~.,._ 6 7 ; ; > w e e > ; 2 e e > ; ; : B S B : ; > ; ; 8 8 > ; ; ; 8 i 9 + k 5.3.y.p.p.U.U.P.B.N.B.u.i.i.",
"r.u.u.p.u.U.a.y.t.y.u.S.~.g.+ 9 7 7 > > w w 7 > > 5 7 ; 7 7 : p p w 8 ; > > > 7 , > 7 7 > 7 a + _ z.7.t.u.u.p.A.A.a.t.t.t.t.y.i.",
"r.u.u.y.y.y.4.4.8.y.y.u.B.l.] 5 5 > ; > 5 7 ; > > > > 9 > > : i e , > > > > 7 7 > > 7 > 7 9 9 ' ,.B.u.u.y.y.y.y.y.t.;.<.<.<.y.y.",
"e.u.p.4.4.4.3.3.3.3.y.B.S.G.k.X 9 8 > 7 4 4 8 7 7 7 7 8 7 7 > i 8 8 8 7 8 8 7 7 7 7 7 7 7 a + g.~.E.R.R.u.u.y.u.t.>.t.1.<.1.>.4.",
"y.u.u.y.t.t.t.8.8.4.y.u.S.T.M.k 5 a 8 7 > 7 7 7 > 7 7 7 4 7 > > 8 > 7 7 7 7 > 7 > > > 8 a 5 _ 6.U.E.6X7Xu.y.t.y.y.4.t.t.8.8.4.e.",
"y.y.u.p.p.A.u.y.y.4.y.N.B.F.F.k.+ 4 u y 8 7 > 7 > 8 7 7 4 4 8 > > , 7 7 > 7 > > 7 ; y a 9 6 5.A.u.U.E.R.y.8.4.t.t.y.B.y.B.y.y.i.",
"y.A.E.E.7XE.i.A.y.t.>.>.>.;.t.M.k.$ 5 a 9 8 7 > , > 8 > 7 7 7 8 , 8 , , > 7 , > y r a r # k.N.y.u.u.y.y.B.y.3.3.8.y.A.y.y.Z.u.u.",
"u.u.L.Y.7XU.U.u.B.4.;.-.<.>.y.B.N.V.h @ 9 r a a a a a 9 9 9 6 9 9 r a a a a a a r r 6 $ x.N.B.y.y.t.t.t.8.6.3.4.y.y.S.A.y.u.y.y.",
"y.y.u.U.E.U.7XP.A.>.>.1.>.>.t.B.y.N.D.!.k # 9 a a a t h f k k f h d a a a a a r h _ *.^.R.N.y.y.u.4.>.>.>.6.8.t.y.u.E.R.u.y.>.y.",
"4.p.u.u.u.p.p.U.P.P.B.N.N.y.4.4.>.t.y.y.D.Q.k + + X O Q.^.^.0X0XQ.f X + + + + # x.G.A.u.4.4.4.3.u.y.t.<.>.N.B.y.S.R.U.U.i.t.>.>.",
"A.p.u.4.4.4.4.u.L.E.E.U.B.y.4.4.>.y.p.i.R.Z.V.V.V.F.~.~.R.B.A.A.Z.N.V.V.V.V.V.V.N.B.A.t.3.4.t.y.y.y.t.<.<.B.u.y.y.A.u.i.u.y.y.B.",
"L.a.p.8.4.8.e.u.a.E.E.U.u.p.r.8.4.t.i.p.U.A.y.y.i.A.P.S.A.u.u.i.p.p.A.B.y.y.y.y.B.y.y.t.3.8.y.i.B.t.1.<.<.t.t.u.y.t.u.u.t.y.y.B.",
"s.a.p.4.4.t.p.p.a.7XE.a.u.R.A.y.y.u.A.U.U.A.y.A.a.A.y.y.B.u.i.p.A.P.U.y.y.y.u.y.y.y.8.4.3.Z.y.y.y.>.<.<.<.<.4.y.t.4.y.t.e.y.p.p.",
"Y.E.7XA.y.p.7X7X7X7X7XA.u.p.u.y.y.y.y.u.y.u.y.u.i.r.4.3.t.p.R.R.S.B.A.4.3.3.4.4.3.3.8.y.y.y.u.u.u.y.t.<.<.t.B.A.t.4.3.8.y.y.u.u.",
"U.U.U.p.p.u.U.U.U.A.S.A.u.u.y.y.t.t.t.t.t.y.y.u.u.4.>.3.y.p.U.A.p.A.y.3.3.4.y.t.4.4.t.y.y.A.a.a.u.y.t.4.y.B.P.u.y.8.3.3.8.8.y.B.",
"A.B.u.u.r.u.u.u.y.4.4.t.u.y.t.t.-.-.;.;.>.t.N.y.y.4.>.3.y.y.u.y.y.y.y.3.4.4.p.p.u.A.B.y.y.R.U.U.A.u.u.u.E.W.W.u.t.3.;.;.;.;.t.y.",
"y.y.u.A.U.7XW.L.y.4.4.y.y.t.1.<.:.-.6.N.N.4.3.N.u.u.y.y.B.B.N.6.>.8.y.P.9XW.7X7X7XW.T.B.4.3.4.u.u.p.U.E.E.E.6XW.B.8.>.1.-.-.-.-.",
"6.N.p.U.E.6X9XP.B.A.A.Z.p.B.1.<.<.1.t.B.N.6.8.B.A.u.y.B.y.6.6.1.1.y.B.A.u.y.U.U.U.a.A.B.8.8.t.p.p.p.U.U.a.a.u.u.t.t.t.1.-.-.-.<."
};
