/* XPM */
static char *_912837e183b4de2837cba20ae1c53c9[] = {
/* columns rows colors chars-per-pixel */
"64 64 135 2 ",
"   c #57552F",
".  c #59542C",
"X  c #5B582F",
"o  c #555534",
"O  c #5B5733",
"+  c #575936",
"@  c #5C5A35",
"#  c #565939",
"$  c #5C5B39",
"%  c #625A2E",
"&  c #625733",
"*  c #635B35",
"=  c #6A5F37",
"-  c #645E39",
";  c #695E39",
":  c #656035",
">  c #696237",
",  c #65623B",
"<  c #6C653D",
"1  c #6E693D",
"2  c #70673D",
"3  c #736B3F",
"4  c #71693E",
"5  c #75693F",
"6  c #736D3D",
"7  c #716D3E",
"8  c #726E3E",
"9  c #726E3F",
"0  c #746C3E",
"q  c #746D3F",
"w  c #716A3E",
"e  c #73713E",
"r  c #666340",
"t  c #676340",
"y  c #666341",
"u  c #6B6640",
"i  c #6B6741",
"p  c #6E6440",
"a  c #6F6541",
"s  c #6F6740",
"d  c #6E6641",
"f  c #6D6641",
"g  c #6D6840",
"h  c #6D6A41",
"j  c #6F6A40",
"k  c #6D6842",
"l  c #6D6941",
"z  c #706740",
"x  c #736741",
"c  c #706642",
"v  c #706740",
"b  c #706841",
"n  c #716841",
"m  c #716A40",
"M  c #706B41",
"N  c #726B41",
"B  c #716942",
"V  c #706843",
"C  c #716D40",
"Z  c #736C40",
"A  c #726E41",
"S  c #736C42",
"D  c #746D41",
"F  c #756E40",
"G  c #766F41",
"H  c #756E42",
"J  c #756E44",
"K  c #766F45",
"L  c #736C42",
"P  c #796E41",
"I  c #786F44",
"U  c #796F45",
"Y  c #757142",
"T  c #777042",
"R  c #767242",
"E  c #767243",
"W  c #777343",
"Q  c #757144",
"!  c #777044",
"~  c #767147",
"^  c #777346",
"/  c #767143",
"(  c #787042",
")  c #787143",
"_  c #797343",
"`  c #7A7345",
"'  c #787147",
"]  c #797246",
"[  c #787445",
"{  c #7A7444",
"}  c #7A7744",
"|  c #797546",
" . c #7B7446",
".. c #7A7647",
"X. c #7B7747",
"o. c #7C7644",
"O. c #7C7547",
"+. c #7D7747",
"@. c #7A7345",
"#. c #7E7947",
"$. c #767248",
"%. c #797248",
"&. c #7A7349",
"*. c #7B7448",
"=. c #7D764A",
"-. c #7F764B",
";. c #7C7649",
":. c #7C7848",
">. c #7C7849",
",. c #7D7949",
"<. c #7E7848",
"1. c #7E7B48",
"2. c #7D794A",
"3. c #7F784A",
"4. c #7C7A4A",
"5. c #7E7A4A",
"6. c #7F7B4B",
"7. c #7F7C49",
"8. c #7F784C",
"9. c #7E794A",
"0. c #80774C",
"q. c #807A48",
"w. c #807A4A",
"e. c #817B4B",
"r. c #827C4A",
"t. c #817E4B",
"y. c #80794D",
"u. c #827B4D",
"i. c #807C4C",
"p. c #807C4D",
"a. c #817D4D",
"s. c #827C4C",
"d. c #827F4C",
"f. c #817A4B",
"g. c #837E52",
/* pixels */
"1 1 2 { e.r.e.<.&.N g 0 T T 1 < < < < 2 d ; * N g < < < X   o o o + @ g d 1 1 g ] J < & & < _ O.P 5 z z d * @ g u , : * . O - , ",
"1 1 q T e.<.<.T H S 1 1 0 0 1 1 , < < 1 d ; ; d g 1 N N 1 , + + + - < < < 1 1 H *.! < < , S { ] q 1 < d < & @ , , : * * , < u 1 ",
"4 2 0.-.O.1 1 <.u.<.0 H ] ! 4 1 & & & * < u < < < 1 ( e.u.{ g < ; @ & & < < 2 T O.u.u.-.N d N g < : * * , , + + + O & , < 2 d 1 ",
"< N I ! H 1 1 T { <.2 4 S S 1 * & & & * - - * * < H <.e.e.O.1 < ; & * * = = < 4 0 T ! N < d g 1 1 : @ * @ @ + o + O * ; 2 4 N N ",
"< 1 1 1 1 1 < < { O.4 z d < < 1 < < , * + + + @ < ! <.u.7.7.O.1 < < < * * ; , < < , < , < g < 1 u.0 : : & @ O @ , < &.6.u.O.J N ",
"* < 1 > { <.1 1 1 1 * & & < < < , , @ @ + # O @ - < S <.r.T 1 1 1 < < < < < * & &       O < < 1 e.e.u.u.1 < < , < 1 1 4 <.( < d ",
"* < ] X.<.<.<.4 < * * - $ - $ $ - < , , r r - & @ < 4 4 0 1 < * * , < < ; * & & & @ # + + < 1 1 H e.<.<.T S < 1 1 < < 4 ! S * * ",
"; < ] -.<.u.u.4 1 * ; - @ # # # $ , < u u u < & * , 4 4 1 1 1 * & , , < * * * * ; - $ + + , < 4 0 e.e.{ { 0 < 4 4 4 1 4 S 1 * & ",
"& * * 1 0 e.u.Z 1 d g , @ $ # # + + , 1 < z < < 1 1 1 1 { { T H , * * & * @ & < N d - @ O @ d &.e.e.] 1 2 1 1 ! T ( T 2 > * * & ",
"= * < < N H q 4 4 4 1 < , , # # # O , < < 2 4 -.<.S 1 1 <.O.T 4 < * & < < < < N N d < < , < N N I ( H N 4 1 1 ! T T ( T Z < < d ",
"< 1 < d d < 1 1 4 0 4 1 < , @ @ O @ , < 2 2 4 6.u.( q 2 O.O.T 4 < , * , u u g J N N < 1 < < g < N 1 N d < 1 1 H ! ( ( ] ! 4 N ! ",
"N < * & & * < 4 { u.q 4 < * < < < u d < & < 1 2 e.e.u.0 1 1 4 1 g d , $ @ $ * , 4 < = * < < 1 g g * @ @ , u < N 1 4 H ] ] S H ] ",
"g < < ; & * 2 -.e.e.<.0 < & * ; ; < < < * * 1 -.e.u.<.1 1 1 u - * - - + @ : < 1 1 1 1 1 1 < : * , $ $ $ $ - , d g g 4 0 0 1 4 S ",
"* * u < < < 2 q T T <.S < < * & & * < d , < 1 q 0 q H 1 1 g < @ $ $ r $ < 1 1 T { { T H 2 ! ! J $ $ $ + # $ @ ; , * < 1 1 1 4 4 ",
"+ $ , < N d 4 2 1 4 6.S < d * * * * , 1 1 1 1 4 2 1 < < < < < - + , u - d 4 { #.#.O.O.O.0 <.<.*.- - + + $ $ @ * * * < 0 0 0 0 J ",
"+ + + , g 4 2 4 1 1 g g 1 < < < z < 1 1 1 < < < < , & & & , 1 < , $ $ d N ] <.e.1.#.#.#.T { { $.u , < i u @ @ - < S <.<.#.<.] J ",
", $ O , 1 ! ] 4 < * * < d d < < < * * * , < N < ; * ; < & * * 1 1 < d d z Z q { <.7.e.O.4 S 1 1 < < < g , - * u < S <.<.O.( q Z ",
"g @ @ , J *.-.4 , & @ < d < N 4 4 * * : & < d < & * < N * & * < < < < d z 4 4 ( { { { ] 1 1 1 < < < < d & & - u , 1 { T q 0 1 4 ",
"J < < J =.*.e.4 1 < * , u g J *.*.-.O.Z & * * * * H { { J N < N < < * @ , 2 < < 1 2 2 4 g u , $ @ @ * u * * * < < , 4 1 1 1 0 S ",
"J N < g J N H 4 1 < * - - - < N S ] ] ( N d , < < H { ! N < < < < , @ * * ; , * = 4 2 < u - $ @ @ , < < < < 1 S 4 1 4 4 1 1 J J ",
"I 4 d < g N 1 4 4 < - $ o $ , < 4 ] ] ] ] N < < 1 H { ] 4 1 d 1 1 1 , < , , < ; ; < < g , @ @ @ @ < g g 4 4 2 ] ( _ ( ] 1 1 g g ",
"2 > & * * < N 1 1 < - @ $ $ + @ < N 4 0 1 1 1 1 1 4 4 4 < < < * > 1 < < < N < ; & * * * @ O u u u < g < < 1 0 #.<.e.u.e.g 1 * , ",
"< , * * * g -.<.{ 1 , < < , < < N < < g < < < ! ! 4 < < & * * * > 1 < N d < & & & , < < @ O 1 < < d < ; & < 1 1 { <.<.<.1 < & * ",
"! 1 < < , g S -.e.( 2 < < g g < < * , $ $ $ $ g 1 4 < 2 , < < g H H J J < < & - < g T *.Q Q $.N 1 , ; * & , 1 *.{ >.T S 4 N J ] ",
"{ 0 1 4 4 1 1 { <.u.0 2 2 4 N < < & * @ + + + < < 1 2 2 2 1 4 ! ! T ] I 4 , @ , u g *.<.<.<.{ H 1 , ; * * , 1 *.*.Y 1 4 4 q O.e.",
"#.{ ] 1 1 N 4 1 ] O.q O.e.e.H 1 < * & $ + + @ @ < < 2 < 2 4 4 1 < 1 J S N g - + - < 1 T <.{ -.H N d z < < * * > > < < 1 ] ] ( #.",
"T 0 S 4 z < , < g S 1 { e.u.H 4 < < , < < < < u d * & * < 1 4 g * @ - - - O o + @ * < 4 S 1 4 1 < 1 < 4 4 4 1 1 < , , z 4 4 q T ",
"S H > , = = * ; , g 1 S T T 4 1 2 N < < 1 1 d < d < , < ] ] ! < ; @ @ $ @ o O @ @ @ < d u ; - - g 1 4 2 H q ! 1 < < ; = = , N T ",
"] 2 * % * & & ; ; u i 1 < 1 1 < d d = * < 4 2 N < 1 1 1 r.e.-.4 < * * @ * : < 1 1 S 1 u , # # + < 1 H ] ] ] J 1 , < & ; - & < d ",
"4 H -.H 1 * < * @ @ + + + u < N < * & * 1 4 ] *.4 1 1 1 #.#.e.-.] 1 < < < 1 4 ( -.*.S , @ + # + @ * < 1 4 < < O @ O @ d < & < , ",
"< N 6.! T 4 H < , + + + + , < < 1 , , < T T ] O.H 4 4 4 T T ] ! H < < d < 2 4 Z ] H S < , , , , @ , < 4 g g < O O @ , z < , , , ",
"* d *.>.{ *.] N < @ o + + + < 1 1 1 1 0 { { <.*.O.4 1 < 1 < < < < < g g d 4 4 N 2 N 1 1 g < < < - g 4 N g < < @ @ @ d S N 2 , < ",
"* * * * * ! S 4 1 1 & @ @ , u 1 1 { T 1 4 ] { -.*.< , g g , * * & * g 1 S ] ] Z < < < 1 1 g 1 1 *.-.-.<.-.H g u , & N S N > * * ",
", ; & , < S H ! ] &.S < < , , < W <.{ ] 1 4 S N 1 * ; , , $ @ , < , < N ! { ( T H ] S < 1 < < d J q ( O.( 4 < < < & * < 4 1 > < ",
"< * * < < 1 ! *.<.<.6.H < ; * , 6.6.<.<.2 2 4 < * & ; - O @ * u d z < 1 ] { ] T O.( 4 < < < < < < < H { q 1 < d ; & * < < d < d ",
"] H N g g < 1 1 0 T { N < * * * 1 >.u.<.O.-.*.< * & & * @ - u g d 1 N 1 4 0 <.<.{ 1 < , & * < 2 N 1 1 4 4 4 < & & & < 4 < 1 < N ",
"O.( 4 < u , - , < j S g 4 < , > 1 ( H ( T H H 1 , , , , , , 4 < 1 0 T ( T 0 ! T S 1 < , & * , < 1 ! q 1 1 < , & & * 4 ! ( ( 1 < ",
"e.O.J d - O @ @ * < 1 S J H H 4 1 1 1 < 1 1 < : < g 1 S ! T ] ] 0 T T <.<.S 1 , , , d < ; , < 1 ] -.O.( ! N , * < ! ] <.e.<.! ! ",
"<.<.{ < @ + @ @ @ , 1 W <.{ ] H 1 < 1 d < * * * < g 1 S <.<.O.O.T 1 4 6.=.$.i @ O @ u d g < 1 1 <.e.<.<.-.H 1 1 ] -.e.u.e.<.*.-.",
"q 4 1 < u , @ < g < 1 S T 4 4 1 < < < d & & & < g < 1 1 1 1 * * > 2 < : * @ $ + + # $ $ u g < 1 4 2 2 2 2 1 1 1 2 4 e.e.O.4 4 4 ",
"4 4 1 1 g < * < 1 1 1 4 H 1 N < < 1 1 1 , , , ; , < < < 1 1 * * = 2 d ; - @ * * $ $ $ $ , , , , , 1 4 T T T T T 4 4 ] ! H 4 < 4 ",
"< 4 N 1 N < < < N < < 4 < 1 < < < 1 1 1 1 g g @ O , < < < < * * = 2 d < , * < < i , $ + $ + @ @ , < H -.-.-.u.] S d < < < < 4 4 ",
"> ! 6.u.6.1 4 d < & & * & * & * & < 0 T 7.<.<.=.@ @ @ @ < < < z < < < < 4 1 4 1 1 g u , @ @ - u d < 1 1 1 H -.1 g < & & & & 1 1 ",
": S ! { ] 1 1 < < = & & & ; , , & < T { #.#.! 1 @ @ @ ; < < < < z N H H T T 4 4 S H J g * - , d d < < 1 1 S ! 4 g < * & & * ; , ",
": 1 1 1 1 1 0 < < , * * * 1 < < & < J { { ( 4 O @ & - < < < d < d J -.e.<.{ 0 H ] ] ] S < < < < d < < < 1 4 1 1 1 1 < * * * & & ",
"< 0 *.<.<.<.6.S < 4 =.6.u.6.S g , , * < ] S z d < < 1 1 < 1 < * & * * > 1 1 1 S H 4 1 1 1 < < < < & * * 1 H H ] ] ] ] 4 < < d d ",
"< < 4 1 q u.u.S 1 < 4 { e.u.H 4 < < < < 4 < z d 1 1 0 { 2 4 < d ; & * * < 1 1 1 4 < < d < * , g d & * * < 4 4 ] ] ! 4 < < d d d ",
", < 1 4 1 ] S < , d 1 H { ] H < , ; , , ; < d < 1 S { <.q 0 d d , * , , , 2 1 < , < ; , , @ $ , < , > > 1 1 4 H H 4 , , , , < d ",
"> < < < < < * & ; d < 2 4 4 1 < * & & & & < < < 4 ] <.<.<.! < N < 1 < < d d < ; * * @ @ O + + @ 1 1 1 1 < 1 < < 1 , O + # # u d ",
": 1 4 > * * * & * ; d 1 S ! 1 g < < = & & * * < 1 N S 1 j 1 1 S { T ! 4 d < ; & * < * O @ u u h *.<.<.*.1 1 < < , @ , $ + $ @ * ",
"1 1 < < < , , ; ; * < 1 Y ] H 1 < d , = ; = ; < g , , , - , 1 T { T H 1 1 < , : , < , - - 1 1 S T <.e.e.1 < < < < * , , ; ; ; ; ",
"< < < 4 N N 2 < < * < < g S S 4 < < < 2 2 N d d , $ O + @ - < T { T 4 1 1 1 1 4 1 1 1 < < < 1 1 0 >.-.-.1 , & , , < d < d < < 2 ",
"1 S 6.6.<.<.2 4 < , O + + O < d < 1 -.<.e.-.4 < O + + + u < < 4 4 1 < u < < 1 T <.e.H 1 1 1 1 < < 1 < < < , & * ; < N < < 1 4 1 ",
"1 1 T <.<.{ T 4 1 @ + + + O , d < < ( O.r.e.T J O + @ - < < < 1 1 1 g ; ; , < S O.u.] H H 1 1 1 < , , , , - * ; < < J J < 1 < < ",
"< < 1 { <.{ e.] N * $ + $ @ < < < d 4 T *.*.*.$.@ * * < 1 4 4 4 4 < < @ @ @ , < S -.-.-.*.1 1 1 1 * @ @ @ - ; , < 1 6.-.1 < @ < ",
"* 4 1 1 1 1 1 ] ! Q h i i u * & & ; < < 1 1 1 < < 1 < 1 -.-.6.6.! 4 < u < @ O @ : H N 1 * * * * 1 < , + @ i < 1 J *.-.*.2 , @ @ ",
"S 4 1 * * * * 1 T <.>.*.j < * * & < 4 1 ( 4 < < < S { <.*.4 4 4 1 1 < < < < < < 1 1 4 , & - , u < < , + + i 1 < < N 1 4 1 < < g ",
"T 0 4 * * * ; 1 0 <.<.{ 1 N > : * , 1 4 ] H < < 1 J ! T H 1 1 1 4 4 4 1 < < < 1 1 < < , & ; < d d , $ + + , , 1 < , d < , < < g ",
"e 0 1 * * , 4 1 0 7.<.S 1 *.N 1 < 1 S ( ] 4 1 N S S < < N 1 4 4 q ( ] 1 < < 1 < < < = * * d < < u @ # # # + * < , * < , : < 4 4 ",
"X.<.u.S < N u.<.<.<.<.H 1 N 1 < < < < < 1 2 1 1 4 , * * , N -.-.H 4 4 * * & * * & & = , < < < 1 g < , # # , d N , * & ; < < 1 1 ",
"{ { ] 4 2 2 ] { ] H T 4 < < < < , , , , , < < 1 d ; * & < 4 ] H 4 4 < & & * , , ; ; , < < H H H 1 < , * < g ! 1 < ; & & ; ; < g ",
"N N 1 1 > 2 4 2 < % % , < < < , o o O O @ , < < < ; & & < < 1 1 < < < * * * 4 4 d N d < < *.-.] H 1 1 1 6.6.6.1 , & O O O O , < ",
"< < 1 S ! u.6.! < * * < < < @ + + o - u , @ * < < z d < u u < - @ - < ! g.<.u.e.u.<.$.g * & * 1 1 4 ] <.<.<.u.6.d * @ @ o o o o ",
"; < N *.<.u.g.! N N N d N g $ # # # r u < - , g N 2 d d t - - $ $ , g S 4 > ( ( { 0 N g ; ; < 4 4 4 ( O.q q 1 1 , , , @ o o o # "
};
