/* XPM */
static char *_824e105daf244658c7cd3978cbc742d[] = {
/* columns rows colors chars-per-pixel */
"64 64 207 2 ",
"   c #18260C",
".  c #18300E",
"X  c #0E2A1B",
"o  c #152613",
"O  c #1A2413",
"+  c #162C13",
"@  c #1B2B14",
"#  c #152719",
"$  c #142B1D",
"%  c #1C2C1B",
"&  c #0D301C",
"*  c #13321D",
"=  c #19311B",
"-  c #222A0D",
";  c #212A14",
":  c #222E1A",
">  c #292D12",
",  c #24311A",
"<  c #2E371E",
"1  c #0F2F21",
"2  c #132D23",
"3  c #192F22",
"4  c #143224",
"5  c #1A3425",
"6  c #1B3A26",
"7  c #1C362B",
"8  c #1C3C2D",
"9  c #123823",
"0  c #1F3C31",
"q  c #2C3924",
"w  c #223629",
"e  c #223D2D",
"r  c #243826",
"t  c #343B24",
"y  c #343C29",
"u  c #383C23",
"i  c #233D31",
"p  c #2D431F",
"a  c #37421F",
"s  c #1D412D",
"d  c #1F4431",
"f  c #25402F",
"g  c #2C432B",
"h  c #2C4A2C",
"j  c #324223",
"k  c #34422A",
"l  c #3C4427",
"z  c #234434",
"x  c #244A34",
"c  c #2A4C35",
"v  c #274D3A",
"b  c #2B4D3C",
"n  c #2A4538",
"m  c #3C4733",
"M  c #324B33",
"N  c #3B4933",
"B  c #324B3B",
"V  c #2C5334",
"C  c #2B543C",
"Z  c #2D5A3C",
"A  c #2A5937",
"S  c #355235",
"D  c #3D5A33",
"F  c #31543C",
"G  c #315C3E",
"H  c #3B5437",
"J  c #33623E",
"K  c #3A683F",
"L  c #45552F",
"P  c #55552E",
"I  c #5A562E",
"U  c #4C4F34",
"Y  c #4C5234",
"T  c #4C533D",
"R  c #4F593E",
"E  c #555534",
"W  c #5A5733",
"Q  c #565935",
"!  c #5C5A35",
"~  c #52563C",
"^  c #585739",
"/  c #565A3A",
"(  c #5B5C3A",
")  c #625A2E",
"_  c #625733",
"`  c #635B35",
"'  c #685F36",
"]  c #645E39",
"[  c #685E3A",
"{  c #4A653B",
"}  c #5E623F",
"|  c #656036",
" . c #6A6337",
".. c #65623B",
"X. c #6C653D",
"o. c #6E693D",
"O. c #70673D",
"+. c #716A3E",
"@. c #726D3E",
"#. c #716A3E",
"$. c #73713E",
"%. c #2E5241",
"&. c #305341",
"*. c #325D42",
"=. c #395D46",
"-. c #356243",
";. c #3A6544",
":. c #3B6B45",
">. c #3B664A",
",. c #3D6B4A",
"<. c #366547",
"1. c #3D7047",
"2. c #4F5845",
"3. c #565840",
"4. c #5B5E42",
"5. c #605F40",
"6. c #406F45",
"7. c #45654D",
"8. c #416D4C",
"9. c #486D4D",
"0. c #436645",
"q. c #5D6243",
"w. c #5B6149",
"e. c #417245",
"r. c #457847",
"t. c #45754C",
"y. c #4B754C",
"u. c #46794C",
"i. c #4A7A4C",
"p. c #507D4E",
"a. c #59784C",
"s. c #456C52",
"d. c #486F50",
"f. c #467451",
"g. c #497454",
"h. c #4B7C51",
"j. c #507F53",
"k. c #517655",
"l. c #646342",
"z. c #6B6640",
"x. c #6F6740",
"c. c #6E6440",
"v. c #6D6641",
"b. c #666A44",
"n. c #6E6940",
"m. c #6D6942",
"M. c #64664A",
"N. c #686749",
"B. c #656C4C",
"V. c #6C6B4A",
"C. c #716741",
"Z. c #706740",
"A. c #716A41",
"S. c #726D41",
"D. c #756E41",
"F. c #736C42",
"G. c #786F43",
"H. c #716D48",
"J. c #6E714C",
"K. c #767142",
"L. c #777145",
"P. c #767143",
"I. c #787143",
"U. c #797246",
"Y. c #7A7546",
"T. c #7C7647",
"R. c #7A7445",
"E. c #7D7946",
"W. c #76744A",
"Q. c #7C754A",
"!. c #7E7949",
"~. c #7E794A",
"^. c #6B7155",
"/. c #7A7752",
"(. c #7C7A52",
"). c #717457",
"_. c #817B47",
"`. c #807A4A",
"'. c #807A48",
"]. c #817D4C",
"[. c #817B4B",
"{. c #80774C",
"}. c #837E52",
"|. c #4E8152",
" X c #538454",
".X c #578954",
"XX c #598B55",
"oX c #558758",
"OX c #5A875B",
"+X c #578959",
"@X c #5A8C5B",
"#X c #5A8357",
"$X c #5D915B",
"%X c #61935D",
"&X c #5C8D60",
"*X c #5F9160",
"=X c #648E60",
"-X c #639564",
";X c #669A64",
":X c #6B9E66",
">X c #679B68",
",X c #6C9C69",
"<X c #689665",
"1X c #749D6E",
"2X c #6DA269",
"3X c #6DA067",
"4X c #71A06C",
/* pixels */
"o.o.O.R.`.`.`.!.Q.F.n.@.K.K.o.X.X.X.X.O.X.' ' F.n.X.X.X.I P E E E ^ ! n.x.+.o.n.U.G.X._ _ X.R.T.G.+.Z.Z.x.' ! n.z...| ` I W ] ..",
"o.o.@.K.`.!.!.K.D.F.o.o.@.@.o.X...X.X.o.x.' ' n.n.o.F.F.o...^ Q ^ ] X.X.X.+.o.D.Q.L.X.X...F.R.U.@.o.X.x.X._ ! ....| ` ` ..X.z.o.",
"+.O.{.Q.T.o.o.!.].!.@.D.U.L.+.o._ _ _ ` X.z.X.X.X.o.I.`.].R.n.X.] ! _ _ X.X.O.K.T.].[.Q.F.x.F.n.X.| ` ` ....^ ^ ^ W _ ..X.O.x.o.",
"X.F.G.L.D.o.o.K.R.!.O.+.F.F.o.` _ _ _ ` ] ] ` ` X.D.!.`.`.T.o.X.' ! ` ` ' ' X.+.@.K.L.F.X.n.o.o.o.| ` ` ! ! ^ E ^ W ` ' O.+.F.F.",
"X.o.o.o.o.o.X.X.R.T.+.x.x.X.X.o.X.X...` ^ ^ ^ ! X.L.!.].~.~.T.o.X.X.X.' ` ' ..X.X...X...X.n.X.o.].@.| | _ ! W ! ..X.Q.~.[.T.G.F.",
"' X.o. .R.!.o.o.o.o.' _ _ X.X.X.....! ! ^ ^ W ! ] X.F.!.`.K.o.o.o.X.X.X.X.X.` _ _ P P P W X.X.o.`.`.].].o.X.X...X.o.o.+.!.I.X.x.",
"' X.U.R.!.!.!.+.X.' ' ] ( ] ( ( ] X.....l.l.] _ ! X.+.+.@.o.X.' ' ..X.X.' ' _ _ _ ! ^ ^ ^ X.o.o.D.`.!.!.K.F.X.o.o.X.X.+.L.F.' ' ",
"' X.U.Q.!.].].+.o.' ' ] ! ^ ( ^ ( ..X.z.z.z.X._ ' ..+.+.o.o.o.' _ ....X.` ` ' ' ' ] ( ^ ^ ..X.+.+.`.`.R.R.@.X.+.+.+.o.+.F.o.` _ ",
"_ ` ` o.@.`.[.F.o.x.n...! ( / / ^ ^ ..o.X.Z.X.X.o.o.o.o.R.R.K.D...` ` _ ` ! _ X.F.x.] ! ! ! x.Q.`.`.U.o.+.X.o.L.K.I.K.O.| ` ` _ ",
"' ' X.X.F.D.@.+.+.+.o.X.....^ ^ ^ W ..X.X.O.+.Q.Q.F.o.o.!.T.D.+.X.' _ ..X.X.X.F.F.x.X.X...X.F.F.G.I.D.F.+.o.o.L.K.K.I.K.F.X.X.x.",
"X.o.X.x.x.X.o.o.+.@.+.o.X...! ! W ! ..O.O.O.+.~.[.I.@.O.T.T.K.+.X...` ..z.z.n.H.F.F.X.o.X.X.n.X.F.o.F.x.X.o.o.D.L.I.I.U.L.+.F.G.",
"F.X.` _ _ ' X.+.R.].@.+.X.` X.X.X.z.x.X._ X.o.O.`.`.].@.o.o.+.o.n.n...! ! ! ` ..+.X.' ' X.X.o.n.n.` ! ! ..z.X.F.X.+.D.U.U.F.D.U.",
"n.X.X.' _ ' O.Q.`.`.!.@.X._ ` ' ' X.X.X.` ' o.Q.`.].!.o.o.o.z.] ` ] ] ^ ! | X.o.o.o.o.o.o.X.| ` ..( ( ( ( ] ] x.x.x.+.@.@.o.+.F.",
"` ` z.X.X.X.O.@.K.K.!.F.X.X.` _ _ ' X.x...X.o.@.@.@.D.o.o.n.X.! ( ( l.( X.o.o.K.R.R.K.D.O.L.L.H.( ( ( Q ( ( ! ' ' ' X.o.o.o.+.+.",
"Q ( ..X.F.x.+.X.o.+.~.F.X.x.' ` ` ` ..o.o.o.o.+.O.o.X.X.X.X.X.] ^ ..z.] x.+.R.E.E.T.T.T.@.!.!.Q.] ] ^ ^ ( ( ! ` ` ` X.@.@.@.+.G.",
"^ ^ ^ ..n.+.O.o.o.o.n.o.o.X.X.X.Z.X.F.n.X.X.X.X.X...` _ _ ..n.X...! ` x.F.U.!.`._._.E.E.K.R.R.L.x...X.n.m.! ! ` X.F.!.!.!.!.U.G.",
"..! W ..o.K.U.+.X.' ' X.n.n.X.X.X.' ' ' ' X.+.X.' _ ' ..! ] ] n.z...X.x.X.D.D.R.!.E.E.E.+.+.@.o.X.z.X.n...] ! X.X.F.!.!.R.I.F.F.",
"o.! W ..H.R.Q.+..._ _ X.X.o.F.+.o.' ' ' _ X.F.X._ ( l.l.Y U E V.m.( E P W ..n.L.R.R.I.I.o.o.X.o.x.z.X.X.` ! ] z...o.R.K.F.@.o.F.",
"D.X.X.H.Q.Q.!.+.o.X.' ..x.n.G.Q.Q.Q.Q.F.` ' ' ] ( / w.N g @ < ~ Y L { { { L E z.X.o.o.F.x.n.z.( ! ! ` X.` ` ` X.X.| +.o.o.+.+.D.",
"D.+.X.x.F.@.D.+.o.X.` ] ] ` z.F.F.U.U.L.n.z.l.( R   + = s.6 % N p a.1X1X1XD j / / l.n.x.z.] ( ^ ^ ....X.X.X.X.F.+.o.+.+.+.o.G.D.",
"K.o.o.X.x.F.O.+.+.X.] ^ E ^ ..z.o.I.U.W.V.q.j + = g y.y.t.;.;.V  X,X:X:Xp.y.V + + k l.z.l.^ W ! ! z.n.x.F.+.+.U.I.K.I.I.+.o.o.n.",
"X.| ` ' ' X.F.O.o.X.( ^ ^ ^ W ! o.o.n.b.a . S k.=.c p.,Xi.t.:.K @X2X:X:X@Xt.f.x F g < q./ ^ z.X.X.x.x.X.X.O.F.T.E.!.!.!.F.+.` | ",
"X...` ` ` x.~.~.R.o...z.X...X.X.o.z.l.j D =X,X@Xh.h.<X4X,Xi.;.y.%X:X,Xi.r.r.t.8.x $ k w.~ ^ z.X.X.x.X.' ` X.o.+.R.E.!.!.o.X.` | ",
"L.X.X.X...F.F.!.!.K.o.X.X.o.o.X.z.( t M #X,X:X:X+Xr.i.,X,Xi.t.OX,X@Xi.t.@X Xr.t.-.F g + k B.l.H.x...' ` _ ..+.Q.R.R.K.D.+.F.D.K.",
"Q.F.o.+.+.O.o.R.E.!.@.+.o.o.n.l.4.q o S OX:X:XXXi.r.i. X<Xi.t.t.h.t.t.i.$X;XoX8.-.>.9.h * % , M.m...' _ ' ..X.~.Q.D.+.+.+.@.T.!.",
"~.Q.L.o.O.F.+.o.K.!.@.Q.~.(.b.a @ = * F OX;XXX.X-X-X<Xi.i.t.t.t.t.t.i.-X;X>X-Xh.,.f.f.-.Z b r O N.n.F.x.X.' ' ....X.X.O.U.R.I.!.",
"K.+.@.o.x.X...X.o.@.+.Q.(.J.j S 9.-.G ;.,.,.e.r.h.|.>X-Xr.r.t.t.;.8.t.i.OXoXi.t.t.f.f.,.<.&.n O ( z.n.X.+.+.o.o.X.....O.+.+.D.U.",
"D.@.| | ....' ' ..n.F.H.V.- H g.f.u.u.t.1.J ;.t.t.t.i.i.t.t.A A ;.t.i.r.t.t.t.t.t.t.<.C C C 4 % ; N.n.+.D.D.P.o.X.X.' ' ' ..F.D.",
"U.+.` ` ` _ _ ' ' X.z.z.q.@ S d.t.u.@X<XOX:.K i.r.i.y.t.,.;.Z A :.r.r.t.u.t.t.t.u.:.Z Z v 8 4 3 % 4.V.Q.U.I.L.X....._ ' ] _ X.X.",
"+.D.Q.D.X.` X.` ! ! ( ^ ~ o c ;.,.oX<X,X@Xr.t.+X@Xi.i.y.8.Z A t.+Xi.u.r.u.+XoXr.t.-.C C s 8 =.6 5 @ M.n.o.o...W ! W ! x.X.! X.' ",
"X.+.!.U.G.F.G.X...^ / ~ q $ x A ;. X-X,X@Xr.+X2X:X;Xr.t.t.J @X-X,X>X@Xr.$X:X:XXXt.-.C Z >.f.g.8.x $ u z.A.X.X.W W ! X.Z.o.| ....",
"' o.Q.Q.Q.~.L.n.X.! ^ Y o B G Z >.t.j.oX|.r. X+X%X:Xr.u.t.e.-X:X:X%Xi.r.$X:X:XXXt.,.>.*.;.f.-.s.b 6 ; N.m.F.X.^ ( ! x.F.+.o...X.",
"` ` ` _ ' L.F.+.+.X.! / m 5 F Z Z -.6.t.f.:.;.t.h. Xu.u.r.OX@X-X,XoXr.r.|. X%X.Xt.t.f.*.G -.C >.%.z : )./.D.o.z.[ ` F.F.F..._ ' ",
"..` ` ' X.F.G.L.T.K.H.q.q M ;.>.Z -.8.h.f.-.A ,.t.t.u.r.u. Xi.|.+Xi.t.i.t.t.|.i.;.,.f.-.V C C %.C 5 % l m.+.X.n.X._ ' X.o.X...X.",
"X.' ' X.X.o.Q.Q.T.~.W.l h 9.t.,.;.t.f.,.G -.-.;.t.r.t.i.i.u.u.r.i.t.t.t.t.t.t.,.J ,.,.Z Z Z C %.8 4 $ ; l.X.n.X...` ' X.X.o.X.Z.",
"K.F.F.F.F.X.n.o.o.P.B.. 0.g.t.t.f.f.t.-.C -.,.t.u.|.*X$Xi.r.u.u.t.t.t.:.:.t.,.J A *.Z C *.&.s 8 4 $ $ m N.z.X.` _ ` x.n.X.o.X.F.",
"R.K.+.X.X...] ..X.N.k M t.f.t.;.8.t.,.G *.8.t.t.u.|.2X3X@Xi.t.t.t.t.,.<.;.t.,.;.*.C C -.,.>.C & 4 i e g y l.] _ ` ' o.L.K.K.o.o.",
"!.T.D.X.` W ^ ^ ( ( + 7.t.f.,.A J -.*.Z -.8.f.t.t.t..X:X,Xi.t.,.;.;.>.>.,.t.f.g.*.C Z >.f.f.s.s s b c r : t ] X.X.D.L.!.!.!.K.L.",
"!.!.U.o.! W ( ( ! / + 7.t.t.-.Z C C C Z G ,.f.,.<.J i.<X>Xi.t.;.Z Z *.-.,.f.g.s.Z v *.>.8.g.s.C x &.b c 5 : l.x.U.Q.!.!.!.!.R.T.",
"D.+.+.X.z...W l.z.l.g F >.;.F x x x v C *.;.*.C Z Z :.i.&Xt.,.>.Z x d C -.s.>.C 8 d x C -.8.>.c 4 %.%.e 5 % l.X.o.o.!.!.Q.@.O.+.",
"F.+.o.o.n.X.' X.n.N.2.$ * b 8 4 z s s C Z Z C C C C C f.f.t.8.*.C s 9 C C &.z 7 4 2 7 &.C Z &.1 4 %.b $ $ , N.L.o.+.U.L.H.o.o.+.",
"X.+.+.o.F.X.X.X.x.l.O # e 4 z %.b s * F g.>.C %.C b C C ;.;.Z C C z b z 7 4 2 4 2 2 4 z b b 4 2 1 2 2 3 : ^./.Q.+.o.X.X.x.X.+.+.",
"| U.!.].!.O.+.x.X.W   o $ b %.%.b 8 c s.f.8.*.C z 4 b C C C C x b b C v b 0 4 2 4 4 4 7 7 8 4 4 4 $ # ; > N.Q.o.o.o.` _ _ ` X.n.",
"` F.L.R.R.o.o.X.X.] 3.; % M B e X X c s.7.F 8 b f $ 8 b C C b 4 4 z b 4 z n 7 2 $ 2 i n i 7 5 7 B o : M.N.m.G.O.o.X.' _ _ _ ....",
"| o.+.O.o.o.+.X.o...` ( ~ - ; % $ $ $ 5 5 $ $ % % % $ 2 b b 2 2 0 7 w % e i 4 2 % w i 7 7 7 # % @ : M.z.z.X.o.o.o.X.X.' ` ` _ ` ",
"X.@.~.~.!.!.~.D.o.+.~.(.(./.V.M.k % % % % % % y w.T @ % = % % % % % @ T q % % % m y : % % % : w.w.^ ! _ F.L.F.R.U.R.L.n.X.X.X.x.",
"o.X.F.o.@.~.~.F.o.o.F.Q.].~.P.m.l.5.5.l.l.} q.l.z.z.z.J.} q.5.5.^ E E ( ] l.5.l.z.l.l.4.4.E ( N.z._ _ _ X.+.@.I.I.K.n.x.X.x.x.o.",
"| X.Z.F.o.L.F.X...X.O.D.R.R.o.o...' ....| X.n.o.+.D.U.!.K.F.X.X.| | ' ..X.X.x.X...........! ] ..o.` | ..X.F.o.D.D.+.........X.o.",
"| o.X.X.X.X.` _ ] x.X.O.+.O.o.X._ _ _ _ ` ..X.X.+.U.!.!.!.L.X.+.o.o.o.X.x.x.x.' ` ` ! ! W ^ ^ ! o.o.o.o.X.X.X.X.o...W ^ ^ ^ z.o.",
"| o.+.| ' ' ` _ ` ' n.o.F.L.o.n.X.X.' _ _ ' ' X.o.F.F.o.m.o.o.F.R.K.L.+.x.X.' _ ` X.` W ! z.z.m.Q.!.!.Q.o.X.X.X...! ..( Q ^ ! ` ",
"o.o.X.X.......' ' ` X.o.K.U.D.o.X.x...' [ ' ' X.n.......] ..o.K.R.K.D.o.o.X...| ..X...] ] o.o.F.K.!.`.`.o.X.X.X.X.' ....] ] ' ' ",
"X.X.X.+.F.F.O.X.X.` X.X.n.F.F.+.X.X.X.O.O.F.x.x...! W ^ ! ] X.K.R.K.o.o.o.o.o.+.o.o.o.X.X.X.o.o.@.Q.Q.Q.o.' _ ....X.x.X.x.X.X.O.",
"o.F.~.~.!.!.O.+.X...W ^ ^ W X.x.X.o.Q.`.`.Q.+.X.W ^ ^ ^ z.X.X.+.+.o.X.z.X.X.o.K.Q.`.D.o.o.o.o.X.X.o.X.X.X.X._ ` ' X.F.X.X.o.+.+.",
"o.o.K.!.!.R.K.+.o.! ^ ^ ^ W ..x.X.X.I.T.`.`.K.H.W ^ ! ] X.X.X.o.o.o.n.' ' ..X.F.T.[.U.D.D.o.o.o.X.........] ' ' X.X.G.G.X.o.o.X.",
"X.X.o.R.!.T.`.U.F.` ! ^ ( ! X.X.X.x.+.K.Q.Q.Q.W.! ` ` X.o.+.+.+.+.X.X.! ! ! ..X.F.Q.Q.Q.Q.o.o.o.o.` ! W ! ] ' ..X.o.~.Q.o.X.! X.",
"' +.o.o.o.o.o.U.L.P.m.m.m.z._ _ _ ' X.X.o.o.o.X.X.o.X.o.Q.Q.~.~.L.+.X.z.X.! W ! ..D.F.o.' ' ` ' o.X...^ ! m.X.o.G.Q.Q.Q.O...! ! ",
"F.+.o.' ` ` ' o.K.!.Q.Q.m.X.' ` _ X.+.o.I.+.X.X.X.F.R.!.Q.+.+.+.o.o.X.X.X.X.X.X.o.o.+..._ ] ..z.X.X...^ ^ m.o.X.X.F.o.o.o.X.X.n.",
"K.@.+.' ` ' ' o.@.!.!.R.o.F.| | ` ..o.+.U.D.X.X.o.G.L.K.D.o.o.o.+.+.+.o.X.X.X.X.o.X.X..._ ' X.x.x...( ^ ^ ....o.X...o.X...X.X.n.",
"$.@.o.` ` ..+.o.@.~.!.@.o.Q.F.o.X.o.F.I.U.+.o.F.F.F.X.X.F.o.+.+.@.I.U.o.X.X.o.X.X.X.' ` ` x.X.X.z.! ^ ^ ^ ^ ` X...` X...| X.+.+.",
"E.!.[.F.X.F.[.!.!.!.!.D.o.F.o.X.X.X.X.X.o.O.o.o.+...` ` ..F.Q.Q.D.+.+.' ` _ ' ` _ _ ' ..X.X.X.o.n.X...^ ^ ..x.F...` _ ' X.X.o.o.",
"R.R.U.+.O.O.U.R.U.D.K.+.X.X.X.X...........X.X.o.x.' ` _ X.+.U.D.+.+.X._ _ ` ....' ' ..X.X.D.D.D.o.X...` X.n.L.o.X.' _ _ ' ' X.n.",
"F.F.o.o. .O.+.O.X.) ) ..X.X.X...E E W W ! ..X.X.X.' _ _ X.X.o.o.X.X.X.` ` ' +.+.x.F.x.X.X.Q.Q.U.D.o.o.o.~.~.~.o..._ W W W W ..X.",
"X.X.o.F.L.].~.L.X.' ` X.X.X.! ^ ^ E ] z...! ` X.X.Z.x.X.z.z.X.] ! ] X.L.}.!.[.`.].~.W.n.` _ ' o.o.o.L.!.!.!.].~.x.' ! ! E E E E ",
"' X.F.Q.!.].}.L.F.F.F.x.Z.n.( ^ ^ ^ l.z.X.] ..n.F.O.x.x.l.] ] ! ( ..n.F.+. .I.I.R.@.F.n.' ' X.+.+.+.I.T.@.@.o.o.......! E E E / "
};
