/* XPM */
static char *_4258ed289244dcb935465f8e34886c7[] = {
/* columns rows colors chars-per-pixel */
"64 64 162 2 ",
"   c #57522C",
".  c #5B552E",
"X  c #565534",
"o  c #5A5632",
"O  c #5D5A36",
"+  c #555839",
"@  c #5B5B39",
"#  c #63572F",
"$  c #66592E",
"%  c #665730",
"&  c #645B34",
"*  c #6A5D34",
"=  c #645F39",
"-  c #685E3A",
";  c #6C6236",
":  c #66623C",
">  c #6D643B",
",  c #6E683D",
"<  c #706236",
"1  c #72653B",
"2  c #79673F",
"3  c #736A3D",
"4  c #7B6B3F",
"5  c #6D6741",
"6  c #6D6942",
"7  c #716741",
"8  c #736B42",
"9  c #7B6D42",
"0  c #767143",
"q  c #7B7244",
"w  c #7D7A47",
"e  c #777449",
"r  c #7D754A",
"t  c #7D794A",
"y  c #816E42",
"u  c #837346",
"i  c #887644",
"p  c #847847",
"a  c #847549",
"s  c #847A4A",
"d  c #8A7B4C",
"f  c #907E4C",
"g  c #8D7E50",
"h  c #8E814F",
"j  c #8F8152",
"k  c #908251",
"l  c #A18B5A",
"z  c #A69466",
"x  c #AD9364",
"c  c #AD976A",
"v  c #AF9A6C",
"b  c #B19669",
"n  c #B49C6C",
"m  c #B99E6E",
"M  c #B59E72",
"N  c #B99E71",
"B  c #B6A06F",
"V  c #B8A16F",
"C  c #B7A171",
"Z  c #B9A272",
"A  c #BFA876",
"S  c #BFAB79",
"D  c #CBAA77",
"F  c #C3AC7A",
"G  c #CCAC7B",
"H  c #D6AE7B",
"J  c #D9AE7C",
"K  c #CFB07A",
"L  c #D6B17D",
"P  c #D9B17E",
"I  c #D5B382",
"U  c #DCB582",
"Y  c #DDB985",
"T  c #D4B889",
"R  c #DCBC8C",
"E  c #DEBF90",
"W  c #E0B685",
"Q  c #E1BA86",
"!  c #E0B789",
"~  c #E4BE8B",
"^  c #E8BE8E",
"/  c #DEC08E",
"(  c #DEC292",
")  c #DFC998",
"_  c #E6C18D",
"`  c #E9C28E",
"'  c #E5C392",
"]  c #EAC693",
"[  c #E6C896",
"{  c #EDC996",
"}  c #E4C699",
"|  c #E6CB9C",
" . c #EFCD9D",
".. c #EECE9D",
"X. c #ECCC9D",
"o. c #EECD9A",
"O. c #F1C996",
"+. c #F0CD97",
"@. c #F0CB97",
"#. c #F0CA99",
"$. c #F0CC98",
"%. c #F1CD99",
"&. c #F1CC98",
"*. c #F2CD98",
"=. c #F2CD99",
"-. c #F0CC9A",
";. c #F1CD9B",
":. c #F0CF9A",
">. c #F2CE9A",
",. c #F1CD9D",
"<. c #F0CF9C",
"1. c #F2CE9C",
"2. c #F3CF9D",
"3. c #F1CF9F",
"4. c #F1CD9B",
"5. c #ECD19C",
"6. c #EED19E",
"7. c #F0D09F",
"8. c #F2D19E",
"9. c #F3D29F",
"0. c #F4D09C",
"q. c #F5D19D",
"w. c #F5D19F",
"e. c #F6D09F",
"r. c #F6D29E",
"t. c #F2D19E",
"y. c #EACFA0",
"u. c #EFCFA0",
"i. c #EBD3A3",
"p. c #EDD1A1",
"a. c #EFD3A3",
"s. c #EED3A4",
"d. c #EDD5A5",
"f. c #EFD4A5",
"g. c #EED6A6",
"h. c #EFD0A1",
"j. c #F2D0A0",
"k. c #F3D1A1",
"l. c #F2D2A1",
"z. c #F1D1A2",
"x. c #F4D2A2",
"c. c #F4D4A3",
"v. c #F6D5A2",
"b. c #F3D3A4",
"n. c #F2D6A7",
"m. c #F6D6A5",
"M. c #F5D5A6",
"N. c #F4D5A7",
"B. c #F5D6A7",
"V. c #F6D4A4",
"C. c #F5D4A2",
"Z. c #F8D4A2",
"A. c #F8D6A4",
"S. c #F6D8A6",
"D. c #F9D8A6",
"F. c #F3D7A8",
"G. c #F6D7A8",
"H. c #F8D6A8",
"J. c #F7D9A9",
"K. c #FADEAF",
"L. c #FADAAA",
"P. c #FCE0B1",
/* pixels */
"3 , 3 q s s s p q 3 3 3 q 9 1 , , , 3 1 > * & 1 , , , > o o o o o o & > 1 1 3 3 9 9 : % $ , q r 3 3 3 , > - % 6 > : = & . . = = ",
", 3 a d k d f i u u a s a s a a q u u u u 9 9 a u u u a r r 7 7 3 9 9 q u u u a g d u y u s g d s u a a u 2 2 u 9 9 9 9 9 9 > 6 ",
"3 q ( ' L K L L R / ' p.p.p.f.y.' / / { { { X.' / / / ( | | } | | | R R ( R / R / / R E E ' { | i.f.f.s.X.( ' [ _ _ ' } ) v 1 7 ",
", u T Y L P U Q ] { t.B.v.l.l.2.] _ _ ] { ] _ ] ` ] ] ] ;.2.o.2.l.2.~ ~ { ] _ _ ~ _ ' ] { ;.;.o.' ' ' t.2.{ ;.e.;.{ ] ;.X.V 2 7 ",
"; u D H H U ^ _ o...n.F.c...2.2.] _ _ ] ] Y P _ ` ;.;.+.;.;.2.t.c.e.U Y ;.;.] _ _ _ _ ;.;.e.t.;.I L I #.2.o.l.B.B.l.{ o.6.A 9 3 ",
"* 9 D U _ #.e.2.o.l.P.K.B.' ' o.;.o.2.2.#.o.{ ] ` ;.{ ] _ ] o.2.;.;.;.{ ;.;.{ e.Z.;.o.;.o.o.o.o.;.#.O.;.o.o.b.n...o.;.o.[ Z < > ",
"* y Y ~ _ ;.Z.2.;.o.G.J.c.{ ] ;.2.t.t.2.;.;.{ ] ` { ` ` ] { o.[ o.o.;.;...o.l.c.B.;.o.;.2.v.B.B.2.#.=.] ] o.2.2.o.;.;.[ X.Z $ - ",
"* y ' ] ` { v.;.{ { 2.2.2.;.o.;.t.v.t.o.;.;.{ { ] ] ` ` { ;.o.[ ] ;.;.o.2.t.B.B.B.2.;.o.2.A.L.A.2.2.O._ ~ ;.o.o.{ +.O.;.X.n * & ",
"& 2 R ] ` ] 2.o.U U W W ! o.o.;.o.o.;.;.;.#.H P P #.O.O.;.;...o.] ] ] ;.o.o.t.o.2.;.#.~ ^ _ [ o.o.;.O._ ~ { ' _ _ ` +.+.[ x % & ",
"- 2 I Y Q _ o.;.~ ~ U U ! 2.] { ;.o.;.;.^ _ P H P ] { ;.;.2.2.o.o.{ { ;.t.t.t.o.;.;.;.~ ~ ~ ] o.2.t.{ ] ' { ] ` Q _ { { ' b < > ",
"1 4 D H H ~ 2.2.#.O.U U Y { ` ] { ;.;.{ P L L H L _ ] ;.;.2.v.c.e.;.;.;.e.c.v.t.;.;.;._ ~ ~ ] ;.e.c.;.;.o.;.+.{ Y Y ` _ _ b 3 0 ",
"7 9 G Y _ ] o.2.;.;.] ] [ o.{ ] { ;.;.+._ _ _ ~ Q _ _ ] o.2.t.t.2.;.2.;.2.e.2.o.] ] ] _ ] ] { o.;.t.;.{ ;.o.;.+.` ` U U I x 3 e ",
"7 9 I _ +.] ] 2.2.t.t.t.c.o.o.o.t.t.o.2.o.{ { ] ' ] ] ' o.;.2.o.;.o.{ O.{ { ;.] _ _ ' ' o.;.;.o.o.;.;.O.{ ;.;.;.O.{ P H I x 3 8 ",
"& 2 T ] ;.;.e.l.A.L.L.L.L.6.o.o.v.B.c.A.2.;.;.e.e.Z.Z.;.;.;.o.o.;.' Y U Y _ ;.;.o.o.;.;.2.o.o.o.] ] ` ` ] ;.] _ _ ` ] ] ' b 1 3 ",
"O 1 T _ o.t.t...B.K.K.J.B.2.o.2.l.c.B.B.t.o.o.t.v.c.v.o.2.;.;.2.2._ U U U _ { ;.o.o...l.l.l.l.o.] ] ] _ ` O.] ` ] ` ' ] ' n 3 9 ",
"o 1 } o.o.v.D.l.S.L.K.G...o.;.o.2.t.c.c.B.v.2.o.o.2.o.o.o.;.e.Z.A.] Y U U Q _ { o.2.v.L.K.L.B.o.2.;.#._ _ _ ` ` ;.;.t.o.o.A 9 9 ",
": 1 } ..o.t.v.2.l.B.B.l.2.] ] ] o.o.t.t.t.;.] { 2.o.t.l.l.t.v.v.l.{ ' _ _ ] ] ;.o.t.t.B.B.c.t.o.....o.{ ] ~ _ [ t.t.l...[ Z 3 3 ",
"> 4 } l.;.o.2.o.t.o.2.;.;.~ ~ _ { { o.;.o.] _ ] ;.o.l.c.c.B.l.2...2...2.;.{ { ;.;.o.o.o.o.2.o.o.....;.;.{ Y ' ..t.l.l...' b 1 8 ",
"9 q } 2.#.;.;.{ { ;.2.;.;._ ~ _ ] ;.o.2.o.o.[ o...v.B.S.S.B...b.B.v...o.o.t.o.o.] ] ] ] { o.t.l.l.c.;.;.;.] { ..L.S.L.B.[ n 3 3 ",
"9 u } #.O.;.{ _ { { ;.;.;._ ~ ] { o.o.o.o...o.o.2.A.B.B.S.S.u.B.D.A.2.....o.o.] _ ~ _ ] ] t.c.B.B.c.;.;.;.o...l.K.K.L.L.t.Z 9 0 ",
"9 u ' ] _ _ _ ] _ ] { ;.;.+.;.;.;.o.t.l.l.t.o.o.2.;.;.2.2.2...o.2.2.o.A.D.l.o.o.;._ ` { 2.D.L.S.D.c.;.;.;.2.;.o.....2.t.p.Z < 3 ",
"< 4 ' ] ' _ _ _ ] ] { ;.;.;.;.{ o.o.v.l.l.t.2.;.#.#.;.O.#.#.;.;.;.;.o.c.A.l.o.;.{ _ _ ;.t.D.S.B.B.c.;.;.;.;.;.o.2.o.2.....Z * ; ",
", 4 ' ;.;.;.2.o.l.B.B.t.t.c.c.2.2.......o.o.o.' Q Y Q H H ~ ;.;.;.;.o.;.;.;.o.;.2.o.o.2.o.o.......;.;.;.~ H H L o.t.A.D.p.M $ - ",
"0 u ' 2.;.;.2.v.B.B.l...o.t.t.o.2.v.v.v.o.o.;.] ] ] ^ H H U Q ` ;.{ ] ] ] ] { ;.o.t.t.t.t.o.....o.] { _ U H Y _ ;.;.v.c.X.n 9 q ",
"r a } 2.;.o.v.A.A.A.....o.o.....c.D.D.B.....o.o.o.o.] L H H H Q ;.] _ _ _ _ ] ;.o.l.B.B.t.;.2.#.' ` ~ P H L ^ o.;.;.2.o...V a t ",
"s g } ;.o.' [ v.2.2...o.o.[ ] ] o.o.v.t.2.;.o.o.2.v.v.^ _ _ ~ ] ;.{ ] _ _ ] { o.o.t.l.l.2.;.#.#.` ^ ~ Q ~ ~ ] ;.;.;.t.t.6.Z q r ",
"9 s ' 2.o.~ _ ;.;.2.;.;.;.] ] ' _ ~ #.;.#.#.o.;.t.D.L.;.;.;.;.;.;.#.{ ] ` { ;.;.o.o.....;.;.;.;.` ` _ ~ ] ;.O.;.+.;.t.l.6.Z 3 0 ",
"0 a ' { ] { { ;.;.;.;.e.Z.e.2.' _ _ ;.#.` _ _ ] o.o.o.o.2.o...2.2.;.;.;.O.;.;.t.c.c.B...o.;.;.;.;.;.O.;.;.;.` _ ;.;.;.o...n 3 8 ",
"0 u ' { ] ] ] { O.{ ;.;.e.e.2._ ~ _ { ;.] _ _ ' o.2.;.;.#.;.;.;.#.#.#.#.;.#.;.v.c.c.c...2.t.2.o.#.;.O.;.;.;.] _ ;.;.;.o...n > > ",
"3 u R _ ` ~ Y L H P { ;.;.;.;.;.;.;.;.;.;.;.o.o.o.o.] ' ] 2.2.;.2.{ ' ' #.;.;.;.o.2.t.D.D.L.t.o.' _ _ { ;.o.o.;.o.;.;.o.X.b * : ",
", a T ] ] ] ` ~ P L ~ ] ;.;.o...l.l.l.2.v.l.B.c.v...o.] o.;.t.c.t...[ { 2.2.2.2.t.t...c.c.c.l...[ [ o.t.l.l.2.] o.o.o.[ ' b * : ",
"* u R ] #.+.O.{ P L I _ ;.;.....B.G.B.l.B.L.L.L.B...2.2.2.t.L.S.D.c...o.2.o.o.o.o.o.o.......t...o.t.B.c.c.B.;.' ' ] ;.] ' n < > ",
"& 2 R ] ;.O.#.;.] ] { { ;.;.....2.l.2...2.v.L.L.B.....l.A.D.L.L.c...o.;.o.U I P U { ;.o.l.B.B.B.....o...t.2.] _ _ { ;.....n $ - ",
": 4 E ] O.#.#.#.o.o.;.;.;.2...o.o.o.;.2.2.v.A.B.v.....l.A.L.B.S.l...;.o.] U H H L O.;.o.c.L.B.B.....o.o.;.;.] ' ] { ;.....M * > ",
", 4 T ` ] ] ] ;.o...o.o.o.c.D.D.v.{ ] ] o.;.o.o.o.o.;.o.2.........2.o.o.U L H U ~ _ ' t.l.B.D.B.c.t.o.o.;.;.#.#.O.;.c.l.6.V < , ",
"0 u T ^ ^ ] ] o.2.c.c.l.2.v.t.t.[ ] { { { ] o.2.o.[ ] ] o.o.B.c.c.t.;.;.~ ~ ~ _ _ ] [ o.t.l.c.l.v.t.o.o.{ _ ] ] ;.;.t...X.n < 3 ",
"q d R ` ^ ` ' _ v.D.D.B...o.;.{ _ _ { { _ ] ;.;.] _ _ _ { 2.D.D.D.e.;.o.2.#.o.' _ ;.2.o.2.o.o.t.;.;.;.;.] ~ _ ' ;.;.o.o.X.Z < 3 ",
"t h ' O.{ ] { #.2.v.v.l.....;.{ { ] { ;.] { ;.;.{ { ] _ { ;.t.v.e.2.;.2.#.;.;.o.{ o.o.[ [ o.2.;._ ^ _ ;.{ ] ] o.;.;.c.c.c.S 9 0 ",
"s k [ O.;.;.o.o.O.] 2...2.2.o.o.{ { { { 2.;.;.2.;.;.o.' { 2...o.;.{ { { 2.;.2.2.2.2.[ ' { ;.;.#.Y Y Y { ;.;.#.#.{ t.D.D.S.F q t ",
"3 u ' o.;._ I I L U o.v.B.t.o.o.~ L L U o.;.2.;.;.o.;.o.o.2.o.o.~ L L U o.v.D.D.A.A.v.o.o.2.;.#.{ ] { ;.;.;.;.o.] ' t.t.6.V 1 3 ",
"3 u ' { ;.~ I L L I o.e.A.t.o.o.~ L I U o.;.;.;.o.o.;.;.2.2.o.o.! L L L ] e.D.D.D.D.t.o.;.;.;.;.O.O.;.o.o.t.2.;._ _ o.o.X.V < 3 ",
"< u T _ O.;.2.2.o.o.;.;.;.o.o.o.;.;.;.o.;.;.' _ _ ] ;.Z.c.v...o.;.] _ ~ ' ] o.o.o...o.o.;.;.] ~ _ _ o.;.t.c.v.;.;.{ o.o...n 1 > ",
"; d T ^ o.2.B.l.c.t.o.{ ] ] ] ] ] ] ;.;.o.o.] ] ] ] o.t.t.o.o.o.;.O.` ] ] { o.o.o.o.o.o.] _ _ ~ ] ] ;.o.t.t.2.o.;.;.o.[ ' x < 7 ",
"* a T ^ #.v.L.L.L.c.2.{ ^ ` ~ _ _ _ { { ;.o.;.;.;.{ o.;.o.;.o.;.{ ;.;.;.;.;.o.o...o.o.o.] ~ ~ ~ ;.o.o.o.o.o.2.;.;.;.o.] ' x * : ",
"& u R ] ;.2.b.b.l.l.o.{ ] ` ~ ~ ` { { o.o.o.2.{ _ ] ] { o.o.] ] { ;.O.{ ;.;.o.t.c.c.t.o.{ ] ] ] ;.;.t.v.t.o.2.{ ~ _ ;.[ [ x $ % ",
", u ' ;.2.o...2.o.[ ;.;.o.` _ _ ] ;.o.o.t.2.;.] ~ _ _ o.o.{ _ _ { ;.;.;.o.;.o.c.D.D.v.o.;.;.;.;.o.;.c.c.c.o.2.{ U Q ;.o...n < 7 ",
"> u ' l.A.c.;.{ U U o.;.;.;.;.;.;.;.2.o.L.B.2.o.o.] ' ;.;.;.#.#.O.{ _ _ _ { o.2.o.t.o.o.;.;.] _ _ _ o.o.o.o.;.#.O.{ ;.o.X.n < 6 ",
": u ' v.A.t.;.O.U Y #.2.2...2.;.2.o.o.o.D.c.o.;.#.] ] ;.;.2.2.;.2.;.] ] ' { ;.o.2.t.;.o.{ { ] _ _ _ 2.o.o.o.;.+.] ] ] o.X.n < 6 ",
"* u R ] ;.;.;.;.=.;.;.l.B.G.B.2.2.o.o.o.;.o.o.;.;.;.2.;.2.2...l.B.D.B.2.2.2.;.;.t.A.t.o.] _ _ _ #.2.;.{ t.v.;.{ L H I { { c > 6 ",
"* u I Q ] ] ] ] { ;.o.l.G.G.B.B.t.o.] ] ] { o.{ ;.e.v.Z.2.2.v.B.S.B.l.2.2.{ ] o.2.t.t.o.{ { { ] #.2.;.;.t.c.] ~ P H H ] ' c & & ",
"> 9 G P ~ _ _ _ { o.o.t.B.L.D.A.v.#.' ' _ ] o.o.o.v.Z.Z.;.e.Z.A.B.c.t.2.;.] _ ] o.o.o.o.{ ;.;.;.;.{ ;.e.c.c.~ L I J J ~ ' c * = ",
"< u ' ` ~ _ { ;.;.o.o.2.o.o.2.o.2.;.' _ _ ] { ;.o.2.;.' _ _ ] ;.o.o.o.o.;.O.{ o.o.o.o.9.c.9.] _ _ _ ;.;.....o.#.O.` ` ] ] n < , ",
"> u ' ] ^ ] { ;.2.o.;.;.;.o.;.2.....' ' ' ] ;.;.o.;.o._ ` _ ] ;.;.;.;.#.;.;.;.{ o...t.c.v.c.o.' _ _ ;.o.....;.;.O.] ` ` ] m < > ",
"> u } ;.;.;.;.;.;.;.;.;.O._ ' o.o...o...o.o.;.] ' o.o.o.{ { ;.;.;.{ ' ^ _ ] ;.;.c.D.S.......2.;.#.;.t.2.o.;.;.#.;.{ ;.{ o.m ; > ",
", u ( t.c.t.t.{ ~ ! Q _ { ] ] ;.t.t.t.t.o.o.2.;.o.t.t.t.o.;.] ] ] ] ^ ` ` { ;.o.t.c.c.o.o.;.2.;.2.2.t.o.o.] ] ] ] o.;.;...n * : ",
"& u ' t.v.c.t.{ P H H Q ` { o.;.t.c.c.c.o.o.2.Z.c.c.c.l.t.;.` ` ` ` ~ _ { { 2.o.......o.;.;.;.#.;.2.D.t.o.' ` ` _ [ ;.o...M % & ",
"3 u ' 2.t.t.o.{ P J H ~ { { o.o.2.l.2.2.;.;.;.e.v.B.B.B.l.t.] ] ] ] ] ] o.2.v.v.l.B.t.o.;.~ ~ ~ { ;.t.;.o.{ ] ] ] { o...l.C < 6 ",
"9 a ' { { { o.{ P P P _ o.o.o.o.;.o.;.;.{ { ] ;.o.B.B.B.B.l.o.2.;.;.;.;.;.e.B.c.B.v.c.;.{ P P P { { o.o.t.o.o.2.o.t.o.l.c.Z 1 6 ",
"0 u R ` _ ~ ] ;.O.+.{ o.t.o.o.o.] ~ { { U P P Y _ ;.;.o.o.o.;.o.;.;.o.;.;.;.2.2.2.2.;.;.O.J P P P Y ;.c.B.L.l...A.D.A.t...M 2 7 ",
"w h R _ ~ ~ ] o.o.{ o.o.o.o.....] _ o.{ L L L U ~ ;.;.;.{ o.o.{ o.o...t.o.o.....o.o.o.;.{ L H H H I o.c.J.B.l...H.D.B...{ C < > ",
"q d F U _ ] o.....X.c.n.c.u...X.{ ' X.6.X.o.[ o.[ o.{ o.' ~ R ' ' X.u.6.c.6.X.X.' ' [ ..o.[ [ o.o.o.o.6.n.n.p.....X.X.| ' c < 3 ",
"3 0 l x n n Z Z M v n Z Z Z M M c c v c v n n n n b b b b b b c v M C n n n V V b b n n n Z Z Z N Z V Z F F F n M v c c z u : : ",
": > < 4 4 d s 9 < & & > < > & o o . = > : % & > < > < < 1 1 , - # * < 9 s s s s s s 9 < $ $ * < < 1 9 p u p s a < * % % .   X + ",
"= : 7 q t s s 0 6 6 6 6 7 6 @ @ @ @ : 5 5 = = 6 7 8 7 6 : = & O & : 7 8 3 > 0 q q 3 3 , - - : 6 7 7 0 0 3 3 3 , : : : O o O + + "
};
