/* XPM */
static char *_b1d261c7db3401792a90e02d72c3152[] = {
/* columns rows colors chars-per-pixel */
"64 64 237 2 ",
"   c #1D150D",
".  c #1C1608",
"X  c #1D0F1B",
"o  c #1F0E14",
"O  c #1D1514",
"+  c #1C141C",
"@  c #1D191C",
"#  c #1B1617",
"$  c #2E0D0A",
"%  c #300E05",
"&  c #24140B",
"*  c #231B0D",
"=  c #251307",
"-  c #361204",
";  c #3A1A06",
":  c #3C160A",
">  c #3C180B",
",  c #34140A",
"<  c #240E15",
"1  c #250E19",
"2  c #290E1D",
"3  c #241315",
"4  c #2B1414",
"5  c #221A14",
"6  c #23141C",
"7  c #2A141D",
"8  c #231A1B",
"9  c #2B191B",
"0  c #2C1B15",
"q  c #311514",
"w  c #331A15",
"e  c #3C1C13",
"r  c #311619",
"t  c #3A1D1A",
"y  c #371A19",
"u  c #35210B",
"i  c #2A251A",
"p  c #3B231A",
"a  c #32271B",
"s  c #3E321F",
"d  c #37301E",
"f  c #2A240E",
"g  c #161321",
"h  c #1C1524",
"j  c #1D1925",
"k  c #1D1429",
"l  c #1D1A2B",
"z  c #1D0F28",
"x  c #231524",
"c  c #2B1425",
"v  c #241A24",
"b  c #2E1D24",
"n  c #22152B",
"m  c #231B2C",
"M  c #2A1B2B",
"N  c #281729",
"B  c #321C25",
"V  c #311A2E",
"C  c #251630",
"Z  c #241B31",
"A  c #2A1B32",
"S  c #24202C",
"D  c #2D2627",
"F  c #332121",
"G  c #3D2323",
"H  c #352C23",
"J  c #3C2A2D",
"K  c #392A29",
"L  c #3D3423",
"P  c #3D3924",
"I  c #3B342B",
"U  c #3F3929",
"Y  c #35302D",
"T  c #242031",
"R  c #2C2331",
"E  c #372A33",
"W  c #392F30",
"Q  c #3C3432",
"!  c #3C3437",
"~  c #421B0B",
"^  c #581D0B",
"/  c #451C14",
"(  c #462518",
")  c #5B2F1C",
"_  c #542916",
"`  c #44331D",
"'  c #4A351D",
"]  c #4D230D",
"[  c #603512",
"{  c #452522",
"}  c #4A2925",
"|  c #4C2C2A",
" . c #472726",
".. c #542D25",
"X. c #5B2B24",
"o. c #5A2D2A",
"O. c #4B3423",
"+. c #433A25",
"@. c #443B2B",
"#. c #483828",
"$. c #523023",
"%. c #53352B",
"&. c #5A372B",
"*. c #412B32",
"=. c #522F33",
"-. c #443C33",
";. c #473537",
":. c #5C3C34",
">. c #5B3B3A",
",. c #563334",
"<. c #623624",
"1. c #653B2B",
"2. c #6B3C28",
"3. c #76392B",
"4. c #633C33",
"5. c #6C3D37",
"6. c #4D442B",
"7. c #56442D",
"8. c #58542D",
"9. c #4C4533",
"0. c #4F4833",
"q. c #484336",
"w. c #544632",
"e. c #534A34",
"r. c #574A38",
"t. c #555534",
"y. c #5B5633",
"u. c #575936",
"i. c #5C5A35",
"p. c #5B553B",
"a. c #565939",
"s. c #5C5B3A",
"d. c #62432E",
"f. c #73452A",
"g. c #7A4829",
"h. c #615A2F",
"j. c #694334",
"k. c #6B463B",
"l. c #654438",
"z. c #7B4A34",
"x. c #73453C",
"c. c #764435",
"v. c #635B35",
"b. c #645D39",
"n. c #685E3A",
"m. c #655B35",
"M. c #7D513F",
"N. c #656135",
"B. c #696337",
"V. c #65623B",
"C. c #6C653D",
"Z. c #6E693D",
"A. c #70673D",
"S. c #716A3E",
"D. c #73713E",
"F. c #5C4845",
"G. c #565042",
"H. c #5D5642",
"J. c #5F5A43",
"K. c #5E594A",
"L. c #694944",
"P. c #774C47",
"I. c #645C44",
"U. c #645C4C",
"Y. c #6A5C44",
"T. c #7D5343",
"R. c #625A51",
"E. c #656242",
"W. c #6D6641",
"Q. c #6E6941",
"!. c #6D6941",
"~. c #6B644A",
"^. c #6A664B",
"/. c #706742",
"(. c #716A41",
"). c #726D41",
"_. c #736C42",
"`. c #796E45",
"'. c #706749",
"]. c #726C4A",
"[. c #786F48",
"{. c #6F7046",
"}. c #767142",
"|. c #777145",
" X c #767143",
".X c #797545",
"XX c #7A7345",
"oX c #7D7946",
"OX c #77724A",
"+X c #7C7649",
"@X c #7E7949",
"#X c #7E794A",
"$X c #6C6752",
"%X c #726B53",
"&X c #776C5A",
"*X c #7A7251",
"=X c #7E7952",
"-X c #787356",
";X c #803F2B",
":X c #8A4733",
">X c #924D3D",
",X c #984F3C",
"<X c #93523D",
"1X c #8A4D2C",
"2X c #9F643A",
"3X c #865946",
"4X c #9D5141",
"5X c #855952",
"6X c #884F44",
"7X c #AB5F48",
"8X c #80774C",
"9X c #817A4B",
"0X c #807C4D",
"qX c #817A4B",
"wX c #8D675F",
"eX c #956459",
"rX c #817C53",
"tX c #AB6445",
"yX c #B67852",
"uX c #AC6A57",
"iX c #896662",
"pX c #9A766A",
"aX c #A06F61",
"sX c #B47F6E",
"dX c #B97969",
"fX c #A7786B",
"gX c #B68174",
"hX c #B48865",
"jX c #CB8C76",
"kX c #C48875",
"lX c #D08D70",
"zX c #CD927A",
"xX c #D49678",
"cX c #C5846E",
"vX c #CB9583",
"bX c #D69884",
"nX c #D7A493",
/* pixels */
"Z.Z.A.XXqX9XqX@X+X(.Q.S.}.}.Z.C.C.C.Z.Z.C.n.v.(.A.C.C.C.i.t.t.t.t.u.i.C.A.A.W._.|._.V.v.v.C..XXX_.S././.W.v.i.Q.W.V.N.v.8.y.b.V.",
"Z.Z.S.}.qX@X@X}._._.Z.Z.S.S.Z.Z.V.C.C.C.Q.V.v.W.C.Z.A.Q.W.W.a.a.a.s.V.C.A.A.Q._.+X|.Z.C.V._.+XXX_.Z.C.W.C.v.i.V.V.N.v.v.V.C.W.Z.",
"A.A.8X+X+XZ.Z.@X0X@XS._.XX|.A.Z.i.v.v.v.W.W.C.C.C.Z.}.@X0XOX^.^.I.s.b.v.C.C.Z. X+X0XqX+XA.Q.(.Z.C.N.v.v.V.V.u.u.u.i.v.V.C.A.W.Z.",
"C.(.`.|._.Z.Z.}.XX@XA.A._._.Z.m.i.i.v.v.b.b.b.v.C._.+X#X=XI.a   * +.s.v.n.n.C.Q._.}.|.A.C.W.Z.Z.Z.N.i.v.i.i.u.u.u.i.v.n.A.A.(.(.",
"C.Z.Z.Z.Z.Z.C.C.XX+XA./.W.C.C.Z.C.C.V.b.u.u.u.i.C.+X@X=X^.H @ v @ 5 e.b.v.v.C.C.C.V.C.V.C.Q.C.A.0XS.N.N.v.i.y.i.V.C.+X#XqX+X_.(.",
"v.C.Z.B.XX@XZ.Z.Z.Z.v.v.v.C.C.C.V.V.i.i.u.u.y.i.V.C._.=Xq.  8 b 6 # d E.W.C.v.v.v.8.t.t.y.C.C.A.qXqX0X0XZ.C.C.V.C.Z.Z.A.@XXXC.W.",
"v.C.XXoX@X@X@XA.C.v.v.b.s.b.s.s.s.V.V.V.V.V.n.v.v.V./.e.L = ; pX3   H 0.v.n.v.m.v.i.s.s.i.C.C.Z._.qX@X@X}._.C.Z.Z.C.C.A.|._.v.v.",
"n.C.XX+X@X0X0XA.Z.v.n.b.i.a.s.a.a.V.C.C.C.W.V.v.v.C.n.O.#.u [ hX$.= #.` e.b.b.b.n.b.s.a.i.V.C.A.S.qXqXXXXXS.C.A.A.A.Z.A._.Z.v.v.",
"v.v.v.Z.S.qXqX_.Z./.Q.V.i.s.a.a.a.y.V.C.(.(.C.Z.Z./.' %.; - 1XxXf.- ; d.u b.b.W.(.Z.V.i.u.i.Z.XXqXqXXXZ.A.Z.Z.|.}.XX}.A.B.v.v.v.",
"n.v.C.C.(._.S.A.A.A.Z.C.V.V.a.a.u.u.V./.C.W.(.+XqX`.' O.j.z.2XyXz.f.1.j.u ^.W.(.(.Z.V.V.V.V.Z.A.XXXX_.A.A.Z.Z.|.}.}.XX}._.C.C.W.",
"C.Z.C.W.W.C.Z.Z.A.S.A.Z.C.V.i.i.u.i.V.W.C.C.(.8X9XXX~.O.$.1.f.f.2.$.} w p.^.Q.(.S.Z.C.W.W.C.C.C.(.Z.(.W.C.Z.Z._.|.XXXXXX|.A.(.|.",
"(.C.v.v.v.v.C.A.XX0XS.A.C.v.C.C.W.W.Q.C.v.C.A.A.oX#X6.& , 1.z.z.c.&.t 3 * b.v.B.Z.Z.n.v.C.C.W.Q.Q.v.i.i.V.W.C.(.C.A._.XXXX_._.XX",
"Q.C.C.n.v.v.A.+XqX9X@XS.C.v.m.n.n.C.C.C.v.v.V.+XqXrX@.4 j.kXzXzXjXgXP.q & I.C.Z.Z.S.Z.Z.A.C.V.b.V.s.s.s.s.b.V.W.W.W.A.S.S.Z.S._.",
"v.v.W.C.C.C.A.S.}.}.@X_.C.C.m.v.v.v.V.C.C.C.Z._.(.].I w eX^ :XzX<X^ x., & $X!._.XXXX_.}.A.|.|.{.s.s.s.u.s.s.i.n.n.v.C.Z.Z.Z.A.S.",
"u.s.V.C.(.W.A.C.Z.A.#X_.C.W.v.m.v.v.V.Z.Z.Z.C.W.!.^.q.p aX;X:XjX3.c.eX> s %X*X+X@XoXXXXXS.@X@X+Xb.b.u.u.s.s.i.v.v.v.C.S.S.S.S._.",
"u.u.u.V.Q.A.A.A.Z.Z.Q.Q.Z.C.C.C.C.C.(.W.C.W.W.I.@.@.I p aXbXbXxXbXnXfX( @.q.0.E.OX@X@X@X}.@XXX|.W.V.C.!.W.i.i.b.C.(.@X@XoX@XXX_.",
"V.i.i.V.Z.|.XXA.C.v.v.C.W.W.C.C.C.v.n.n.n.W.@.5 # @ @ 9 x.kXjXuXcXvXwXq 3 + + 5 a *X#XoXA._.Q.Q.C.C.C.Q.V.b.b.W.C._.@X@X+XXXS._.",
"Q.i.i.V._.+X+XA.V.v.i.C.W.C.(.A.A.m.n.n.v.+.  @ j m j 6 / eXuX<XuXsX| 3 x x x 8 . 6.OXXXZ.Z.Q.C.C.C.C.W.v.v.b.W.C.Z.XX}.S.S.Z.A.",
"|.C.C._.OX+XqXA.Z.C.v.V.W.Q._.+X+X+X+X_.v.b.@.a 6 m j x 4 4.dXdXsXx.9 + m l @ i P !.W.(.Z.Q.V.i.i.i.v.W.v.v.v.C.C.C.A.Z.Z.Z.S._.",
"_.(.C.Q._.(._.A.Z.C.v.b.b.b.C.S._.XXXX_.Q.C.~.U.W h j v < e 3.:Xc./ 3 @ m g Y K.E.!._.W.W.b.i.i.i.V.C.C.C.C.Z._.A.Z.A.A.Z.Z._._.",
"`.A.W.C.Z.(.Z.A.A.C.b.s.u.s.V.C.Z.XXXX+X|.(.~.U.;.R g x 4 X.>X4X>XX.r x x @ Q r.b.W.W.W.E.u.i.i.i.C.Q.Q.A.A.A.XXXXXXXXXXZ.Z.Q.Q.",
"A.B.v.v.v.C.(.Z.Z.C.b.i.s.s.u.i.Z.A.(.(.Z.C.E.L # h g v | 6X,X7X>X6X>.b X @ # a p.v.n.b.u.u.W.C.W.C.Q.C.C.Z.S.+X@XqXqXqXQ.Z.v.V.",
"C.V.v.v.v.Z.+X@XXXZ.V.C.C.V.C.C.Q.C.Z.C.C.W.I.  @ m h B eXcXtXtXtXkXpXr + m h 5 y.C.C.C.i.u.C.C.C.W.C.n.v.C.Z.Z.XX@X@X@XA.C.v.v.",
"|.Z.C.C.V.Q._.+XqXXXA.C.C.Q.Q.C.C.v.V.v.v.b.G.# x h h 9 5XvXlXyXjXvXiX9 x g h 6 H.W.|.+X X!.+X_.Z.V.n.m.v.V.Z.+XXXoX}._.A.(._.XX",
"XXS.Z.A.A.Z.Z.XX@X0XS.A.A.A.A.C.C.v.i.i.i.a.I @ A k h v J wXgXdXgXiX;.v h k n + i ~.OX@X@X@XXX_.Z.V.n.m.v.V.Z.+X+X_.Z.A.A.S.+XqX",
"oXXXXXZ.Z.(.A.Z.XX+XS.+XqXqX_.Z.C.v.v.i.u.H.Y x A k h j S 9 ..P.G 9 M l h h m +   ^.W.}.XXXX+X_.A.W./.A.C.v.m.B.B.C.C.Z.XXXXXXoX",
"}.S._.A./.C.V.C.Q._.Z.XXqX0X_.A.Z.C.C.W.V.~.Q N A k h h m M 6 o 6 M m h g h Z x O J.W.A.A.A./.C.C.Z.C.A.A.A.Z.Z.C.V.V./.A.A.S.}.",
"_._.B.V.n.n.v.n.V.Q.Z._.}.}.A.Z.Z.A.W.W.!.~.J M m m m + j l l g j j h g + v N m + G.W.A.Z.v.n.V.Q.Z.A.A._.S.|.Z.C.C.n.n.n.V.(.}.",
"XXA.m.h.v.v.v.n.n.W.!.Z.C.Z.Z.C.A.C.n.n.~.@.+ M v W Q # j l l g j h h + @ D x m + -.'.C.C.i.u.i.C.Z._.XXXXXX_.Z.V.C.v.n.b.v.C.W.",
"A._.+X_.Z.v.C.v.i.i.u.u.u.W.C.A.A.v.v.b.~.@.x n @ Q R.# h m m g m h h 6 R.H 6 x v q.].V.y.u.u.s.i.i.C.Z.A.C.C.i.i.y.i.W.C.v.C.V.",
"Z._.#X|.}.A._.C.V.u.u.u.u.V.C.C.C.V.V.C.%X-.x N 5 R.U.0 6 x l h m h 6 9 G.U.D x + -.^.C.V.V.V.V.i.V.C.A.Q.Q.C.i.y.i.V./.C.V.V.V.",
"v.W.+X+XXX+XXX(.C.i.t.u.u.u.C.Z.Z.Z.Z.].^.O m m 8 R.H F J B x + v b *.K 5 K.E x x O 0.Q.Q.Q.C.C.b.Q.A.(.Q.Z.C.i.i.i.W._.(.A.V.C.",
"v.v.v.v.v.|._.A.Z.C.v.i.i.V.W.Z.Z.XX}.W.U.# N m v ! @ 6 F ;.G < r ;.*.6 3 ;.E x n + 0.Q.Q.W.Z.Z.+X+X+X@X+X_.Q.W.V.v.(._.(.B.v.m.",
"V.n.v.V.C._._.|.XX+X_.C.C.V.V.C.XX@X+XOXI.# M n + v h h 9 G ,.{ >. .7 x 6 ;.E x n + 0.W.W.Z.C.A._.S.XX+XXXA.C.C.C.v.v.C.A.Z.B.C.",
"C.v.v.C.C.Z.|.+X@X@X#X_.C.n.m.V.@XqXqX+XU.5 M C h h h m x 3 t k.{ 3 6 x x ! R x n + 0.W.Q.C.C./.C.C._.XXS.Z.C.W.n.v.v.C.C.W.C.W.",
"XX_.(.Q.Q.C.Z.Z.S.}.XX(.C.v.m.v.Z.@XqX=X%X3 B V X h h m h 6 e &.G 6 x m x h h x M 3 e.V.v.v.C.W.(.Z.Z.A.A.A.C.v.v.v.C.A.C.Z.C.(.",
"+XXXA.C.C.V.b.V.C.Q._.Q.A.C.V.B.A._.XX].~.& ,.,.X h l l l 6 ( M.{ 7 x m m h X J F.4 w.W.v.v.V.Z.Z.}.S.Z.Z.C.V.v.v.v.A.|.XXXXZ.C.",
"qX+X_.W.b.y.i.i.v.C.Z._._._._.A.Z.C.C./.Y.p o.o.3 j l l l 6 _ 3X} 7 N N m x 1 G ,.e 7.E.C.n.Z.Z.XX+X+XXX|.(.V.v.C._.XX@XqX@X|.|.",
"@X@XXXC.i.u.i.i.i.V.Z..X@XXXXX_.C./.C./.I.e c.5.< l m l m 8 ) 3X} 7 M k m x < ,.5X/ w.~./.A.C.Z.qXqXqXqX+X_.Z.Z.XX+XqXqXqX@X+X+X",
"S.A.Z.C.W.V.i.C.Q.C.Z._.}.A.A.Z.C.C.W.W.y.( c.o.< l l k T 8 <.z.{ 7 M z m x 1 =.5X( 6.b.W.C.Q.Q.A.A.A.A.A.Z.Z.Z.A.A.qXqX+XA.A.A.",
"A.A.Z.Z.Q.C.N.C.Z.Z.Z.A._.Z.A.Z.Z.C.Z.C.n.' $.| 6 m l l m 3 1.2.} 7 A n n x x *.r.' y.s.V.V.V.V.V.Z.A.XX}.}.}.}.A.A.XX|._.A.C.A.",
"C.A.(.Z.(.Z.C.C.(.C.C.A.C.Z.C.C.C.Z.A.(.(.W.O.3 6 m l m m 3 1.<.{ 2 A C k m h 3 u Y.b.u.s.s.i.i.C.C._.+X+X+XqXXX(.W.C.C.C.C.A.A.",
"B.|.#X0X#XZ.A.W.C.m.v.v.v.v.v.v.v.C._.XX@X=X&X3 @ S l m m 3 1.<.{ 1 A C k n k 8 Y./.W.V.s.u.V.C.C.C.Z.Z.Z._.+XA.W.C.v.v.v.v.Z.Z.",
"N._.|.XXXXZ.Z.C.C.n.v.v.v.n.V.V.i.C.|.+X@X=X$X# @ l l m x 9 4.) | 4 M Z n k k 8 ~._._.W.b.b.V.C.W.C.C.Z.Z._.|.A.W.C.v.v.v.v.n.V.",
"N.Z.Z.Z.A.Z.S.C.C.V.v.v.m.Z.C.C.v.C._.+X@X].H.# j l m Z v F j._ k.$ N C n n h 8 H.*X+X_.C.C.C.C.W.C.C.C.Z.A.Z.Z.Z.Z.C.v.v.v.v.v.",
"C.S.+X@X@X@X#X_.C.A.+X#X0X#X_.Z.V.b.V.C._.].P # j l l T v K j.] T.$ c C n n m # * ~.W.C.Z.C.C.Z.C.v.v.v.Z._._.XXXXXXXXA.C.C.W.W.",
"C.C.A.Z.S.qXqX_.Z.C.A.XXqX0X_.A.C.C.W.(.W.^.I # l l Z R 3 #.k.~ 3X% c A n n h @ * ~.W.Q.C.i.V.W.W.v.v.v.C.A.A.XXXX|.A.C.C.W.W.W.",
"V.C.Z.A.A.XX_.C.V.W.Z._.XXXX_.C.V.V.C.V.V.^.Q + m h l M 3 %.4.~ 3X% c A n n m + 5 U.E.V.V.i.v.V.W.V.B.B.Z.Z.A._._.A.V.V.V.V.C.W.",
"B.Z.C.C.C.C.v.v.n.W.C.A.A.A.Z.C.v.v.v.i.b.0.i g l h Z m 4 %.:.~ 3X: c A n k m h O -.s.a.u.u.u.i.Z.Z.Z.Z.C.C.C.C.Z.V.i.u.a.a.W.W.",
"N.Z.A.B.v.v.v.v.b.n.W.Z._.|.Z.Q.C.C.n.v.I.I # j l h Z m w l.%.: 3X~ 7 Z m k n h + Q I.a.u.E.E.Q.+X@X@X+XZ.C.C.C.V.i.V.s.u.s.i.v.",
"Z.Z.C.C.C.V.V.n.n.v.C.Z.}.XX_.Z.Z.C.V.n.I.I + l h l Z x w :.} e M.~ 7 Z C k n x + Q J.b.b.!.Q._.}.@X9XqXZ.C.C.C.C.v.V.V.n.n.n.n.",
"C.C.C.A.(.(.A.C.C.v.C.C.Q._._.A.C.C.C./.U.O j Z g h m 6 t 4.| e 3X/ 6 Z C n n N h # e.W.Q.C.C.Z.S.@X@X+XZ.n.v.V.V.C.W.C.W.C.C.A.",
"Z._.#X#X@X@XA.A.C.V.i.u.u.i.C.W.Q.Z.+X*XI # l Z g m l 6 ( &.t t 3X: 7 C C n n n h + a I.Q.Z.A.Z.C.Z.C.C.C.V.v.v.n.C.(.C.C.Z.A.A.",
"Z.Z.}.@X@XXX}.A.Z.i.u.u.u.y.V.W.C.W._.~.8 g l l h S j 3 $.1.y y T.~ 6 m A n k m x @ 5 H.].C.C.A.C.V.V.V.V.b.v.n.C.C._._.C.Z.C.C.",
"C.C.Z.XX@XXXqXXX(.v.i.u.s.i.C.C.C.W.'.@.+ m T h l S j 3 1.<.9 9 j.( 6 m A Z n n n h @ i -XW.C.Z.Z.v.i.i.i.b.n.V.C.Z.#X+XZ.C.i.C.",
"v.A.Z.Z.Z.Z.Z.XX|. X!.!.W.W.v.v.v.I.@.8 g Z l k l m + 4 x...7 7 ..&.3 x C Z n n n k g @ @.p.b.v.Z.C.V.u.i.!.C.Z._.+X+X+XA.V.i.i.",
"_.A.Z.v.v.v.v.Z.}.@X+X+XQ.C.v.v.s.r.O h l l l l m x 3 t L.t x 6 ( k.B x n C n n n k h @ # -.I.W.C.C.V.u.u.!.Z.C.C.(.Z.A.Z.C.C.Q.",
"}.S.A.v.v.v.V.Z._.@X@XXXZ._.B.n.P   @ m l l k Z l 6 4 L.G < x x w :.G 1 N C n k k m n h + O s C.W.V.s.u.u.V.V.Z.C.V.W.C.V.C.C.Q.",
"D.S.Z.m.v.V.A.Z.S.@X@XS.Z.+X(.W.L 5 v j k k l l h 3  .>.3 + m x 6 ;.>.q 6 n Z C k n n v j 8 f E.W.i.a.a.a.u.v.C.V.v.C.V.v.C.A.Z.",
"oX@XqX_.C.(.qX@X@X@X@X_.Z.(.Z.W.J.i @ @ @ j m v O H %.q O 8 v x 3 w %.O.9 6 v x 6 + 6 8 8 q.I.~.Q.C.V.a.a.V.W.(.V.v.v.n.C.C.C.Z.",
"XXXXXXA.A.A.XXXXXX_.}.A.C.C.C.W.E.E.K.q.P U @.+.+.w.` s +.@.@.@.@.#.O.7.%.L +.+.I L p.E.E.]._._.Q.C.V.v.C.Q.|.Z.C.n.v.v.n.n.C.Q.",
"_.(.Z.Z.B.A.A.A.Z.h.h.V.C.W.C.V.u.u.u.a.a.E.E.W.W.b.b.p.~.^.~.~.E.~.W.m.n.b.].~.~.!.W.C.Z.+X+XXX_.Z.Z.Z.#X#X#XZ.V.v.y.y.y.y.V.C.",
"C.C.Z._.|.0X#X|.Z.v.v.C.C.C.i.u.u.y.b.C.V.i.b.W.W.W.W.W.W.~.W.b.s.n.W.[.rXrXqXqXrX#XOXZ.h.v.V.C.C.A.XX@X@X@X0X#XW.v.i.i.t.t.t.u.",
"n.C.(.+X@X0XrX|.(.(.(.C.(.Q.b.a.s.s.V.W.W.b.b.Q.!.W././.V.b.b.b.s.E.!._.S.B.XXXXXXS.Z.Z.v.v.C.C.A.A.XX+XS.S.Z.Z.V.V.V.i.u.u.u.a."
};
