/* XPM */
static char *f8f874344caf4a56b4c0b3c7de9ef8af[] = {
/* columns rows colors chars-per-pixel */
"64 64 213 2 ",
"   c #050505",
".  c #0A0502",
"X  c #0C0B03",
"o  c #06050A",
"O  c #0A070A",
"+  c #0C0B0C",
"@  c #070800",
"#  c #120C03",
"$  c #1C0C02",
"%  c #120D0C",
"&  c #1A0806",
"*  c #131104",
"=  c #191302",
"-  c #13120C",
";  c #1B130D",
":  c #1C1908",
">  c #0E0714",
",  c #0F0C11",
"<  c #120D13",
"1  c #160E1C",
"2  c #141214",
"3  c #1A1514",
"4  c #161815",
"5  c #1A1A16",
"6  c #161319",
"7  c #1A151C",
"8  c #1C1A1C",
"9  c #210E05",
"0  c #241400",
"q  c #23120C",
"w  c #291907",
"e  c #311D01",
"r  c #341705",
"t  c #231C1C",
"y  c #2A1C1A",
"u  c #231916",
"i  c #371C11",
"p  c #27220D",
"a  c #362408",
"s  c #242213",
"d  c #292315",
"f  c #27251A",
"g  c #29231B",
"h  c #2D2C1C",
"j  c #2D2D13",
"k  c #3D2D13",
"l  c #332B1B",
"z  c #3B2D1B",
"x  c #372414",
"c  c #34321C",
"v  c #39341C",
"b  c #3D391E",
"n  c #343315",
"m  c #1C1421",
"M  c #1E1A21",
"N  c #221C23",
"B  c #251D2A",
"V  c #281E2A",
"C  c #291F31",
"Z  c #252124",
"A  c #2B2325",
"S  c #26212A",
"D  c #2B232C",
"F  c #2C2920",
"G  c #30252C",
"H  c #343223",
"J  c #3B3525",
"K  c #3D3A25",
"L  c #2D2434",
"P  c #2E2934",
"I  c #2F2138",
"U  c #312634",
"Y  c #322934",
"T  c #33263B",
"R  c #332B39",
"E  c #392E3F",
"W  c #39313E",
"Q  c #50280E",
"!  c #432B1A",
"~  c #472D16",
"^  c #532B12",
"/  c #473A1D",
"(  c #49351B",
")  c #5D3A1C",
"_  c #472F23",
"`  c #423D21",
"'  c #43322B",
"]  c #413D2A",
"[  c #4D342D",
"{  c #473835",
"}  c #61401D",
"|  c #444329",
" . c #494429",
".. c #49482C",
"X. c #534E2D",
"o. c #5D4429",
"O. c #5B552E",
"+. c #4A4531",
"@. c #4E4B32",
"#. c #4F4E39",
"$. c #49473B",
"%. c #524D34",
"&. c #524B3B",
"*. c #594634",
"=. c #555534",
"-. c #5B5633",
";. c #575936",
":. c #5C5A35",
">. c #54533A",
",. c #5A563B",
"<. c #565A39",
"1. c #5C5B3A",
"2. c #62452C",
"3. c #664B2B",
"4. c #625A2E",
"5. c #654B3E",
"6. c #744C35",
"7. c #7B4E31",
"8. c #615733",
"9. c #635B35",
"0. c #61563A",
"q. c #645D3A",
"w. c #685F3A",
"e. c #765534",
"r. c #754725",
"t. c #656035",
"y. c #696237",
"u. c #65613B",
"i. c #6C653D",
"p. c #6E693D",
"a. c #70673D",
"s. c #716A3E",
"d. c #73713E",
"f. c #372C41",
"g. c #392D42",
"h. c #3B3243",
"j. c #3F3349",
"k. c #41364B",
"l. c #41384D",
"z. c #574940",
"x. c #5A5643",
"c. c #5B5943",
"v. c #624F40",
"b. c #635E42",
"n. c #645349",
"m. c #7A5D4D",
"M. c #666242",
"N. c #6D6641",
"B. c #6D6941",
"V. c #6A664B",
"C. c #6C684A",
"Z. c #666249",
"A. c #716641",
"S. c #736C42",
"D. c #796E45",
"F. c #726E4A",
"G. c #767142",
"H. c #767143",
"J. c #7A7545",
"K. c #7C7547",
"L. c #7A7345",
"P. c #7E7946",
"I. c #75724A",
"U. c #7C7649",
"Y. c #7E7949",
"T. c #7E794A",
"R. c #6C6C54",
"E. c #736855",
"W. c #7A7851",
"Q. c #835323",
"!. c #805E3B",
"~. c #845D44",
"^. c #876043",
"/. c #807A4B",
"(. c #807C4D",
"). c #817A4B",
"_. c #80774C",
"`. c #83685D",
"'. c #946D56",
"]. c #827F52",
"[. c #967259",
"{. c #A67D5F",
"}. c #A67648",
"|. c #8B7B6E",
" X c #917464",
".X c #A27E65",
"XX c #A1805D",
"oX c #BA8A5B",
"OX c #A78466",
"+X c #A68A74",
"@X c #AA8974",
"#X c #A98C7C",
"$X c #B48F72",
"%X c #B8957B",
"&X c #B68B6B",
"*X c #CB9F7E",
"=X c #C39272",
"-X c #D19D78",
";X c #AF9888",
":X c #B29C91",
">X c #CC9E81",
",X c #CEA183",
"<X c #CCA589",
"1X c #DEAD85",
"2X c #DCAF90",
"3X c #E2B28C",
"4X c #EAB793",
"5X c #EDBB97",
"6X c #E5BA9B",
"7X c #F3BE94",
"8X c #F6C196",
"9X c #F5C19B",
"0X c #F8C198",
/* pixels */
"p.p.a.L.).).).Y.U.S.B.s.G.G.p.i.i.i.p.p.i.9.9.S.p.p.p.i.-.-.=.=.=.;.q.N.B.B.N.S.S.S.i.8.8.i.L.L.S.s.A.A.N.9.:.B.N.u.t.9.O.-.q.u.",
"p.p.s.G.).Y.Y.G.S.S.p.p.s.s.p.p.u.i.i.p.A.w.9.N.B.i.a.p.p.i.;.<.<.b.M.N.N.w.a N.U.O.w.i.i.S.K.L.s.p.i.N.i.8.:.u.u.t.9.9.u.i.N.i.",
"a.a._.U.K.p.p.Y.(.Y.s.S.L.H.a.p.8.9.9.9.i.i.i.i.B.p.G.).T.I.N.V.#.K ,.0.N.$ A.e k 0 u.U.S.p.a.p.i.t.9.9.u.u.;.;.;.:.8.u.i.a.N.p.",
"i.S.D.H.S.p.p.G.L.Y.a.a.S.S.p.9.8.8.q.q.q.q.q.9.i.S.L.).T.I.` J g @ l z z ( XXr ( k :.S.i.p.p.B.p.t.:.9.:.:.;.=.;.:.9.w.a.a.S.S.",
"i.p.p.p.p.p.i.i.L.K.a.A.N.i.i.p.i.i.u.q.;.<.<.1.N.I.Y.T.W.b @ t g Z g w 0 e.oXQ.} 3.O.i.u.N.i.p.(.s.t.t.8.8.-.:.u.i.U.T.).K.S.S.",
"9.i.p.y.L.Y.p.p.p.p.9.8.8.i.i.i.u.u.:.:.<.<.<.1.q.i.s.T.1.* - 7 N t u q ! 3.}.oX!.a X.-.-.N.i.p.).).(.(.p.i.i.i.i.p.p.a.Y.L.i.N.",
"9.i.L.K.Y.Y.Y.a.i.9.9.q.1.q.1.1.q.u.u.u.u.u.q.q.9.i.p.F.#.X 3 N 5 % y z *.~ ) e.2.e =.<.;.i.B.p.S.).Y.Y.G.S.i.p.p.i.i.a.H.S.9.9.",
"w.i.L.U.Y.(.(.a.p.9.w.q.:.<.<.<.<.u.i.i.i.i.u.8.w.N.N.M.# + o 7 7 . & q 9 & a 2.o.$  .1.<.u.i.a.s.).).L.L.s.i.a.a.a.p.a.S.p.9.8.",
"8.9.9.p.s.).).S.a.A.B.u.:.1.<.<.;.;.u.i.i.p.p.p.a.i.N.M.X + + + 2 + 3 g q ! .X<X6X[.$ =.1.:.i.L.).).L.p.a.p.p.H.G.L.G.a.y.9.9.8.",
"w.9.i.i.S.S.s.a.a.a.p.i.u.u.<.<.<.;.u.i.i.p.s.U.K.S.p.N.X + 2 2 4 8 Z u 9  X.X7.>X<Xx 1.M.i.a.a.L.L.S.S.a.p.p.H.G.G.L.G.S.i.i.N.",
"i.p.i.N.N.i.p.p.a.s.a.p.i.u.:.:.:.:.u.i.N.i.a.).).L.S.M.# + O 2 3 5 t q 5.'.~.^.^ %Xk 0.N.p.a.i.a.p.S.N.i.p.p.G.H.L.L.L.H.a.S.H.",
"S.i.9.8.8.9.i.a.L.(.s.a.i.9.i.i.N.N.N.u.8.u.p.a.).).).N.: * + 3 % y ' w '.2X&X{.Q @Xk -.i.p.p.p.B.9.:.:.u.N.i.S.i.a.S.L.L.S.S.L.",
"B.i.i.w.8.9.a.U.).).Y.s.i.8.9.w.w.N.i.p.9.9.y.U.).Y.(.B.=.# 3 2 % z.#X6.=X9X1X3Xr.,X~ 0.i.i.t.9.u.1.1.1.1.q.u.N.N.N.a.s.s.p.s.S.",
"9.9.N.i.i.i.a.s.G.G.Y.S.i.i.9.8.8.9.p.a.u.p.i.S.S.S.G.B.C.H % 5 - u @X,X9X8X8X7X-X6X+X/ S.H.H.H.1.1.1.;.<.1.:.w.w.9.i.p.p.p.a.s.",
";.1.u.i.S.N.a.i.p.a.T.S.i.B.9.9.9.9.u.p.p.p.p.S.p.i.N.%.+.$.X O 2 & i ~.5X0X8X0X9X*Xe ` F.Y.Y.U.q.q.;.;.1.1.:.9.9.9.i.s.s.s.s.S.",
";.;.;.u.B.a.a.a.p.p.B.B.p.i.i.i.A.i.S.B.i.i.i.i.i.u.q.p . @ X O + % $ m.>X0X8X0X4XOXk F.S.U.U.L.N.u.i.N.N.:.:.q.i.S.Y.Y.P.Y.L.S.",
"u.1.:.u.p.H.L.a.y.9.9.i.N.N.i.a.i.9.w.q.w.i.S.i.9.9.q.v # % 2 2 8 Z t $ 6.*X4X5X,Xe.y.U.B.S.a.a.i.i.i.B.u.q.q.N.i.S.Y.Y.K.L.s.S.",
"p.:.:.u.F.U.U.a.u.8.:.i.N.i.S.a.a.9.9.w.9.i.i.i.9.9.i.C.K # X 2 8 5 Z u r [.%X$XOXo.D.H.i.B.i.i.i.i.i.N.8.8.q.N.i.p.L.G.s.s.p.a.",
"S.i.i.F.U.U.).a.p.i.9.u.N.B.S.U.U.U.U.S.9.9.9.9.:.S.U.U.F.` @ @ + 2 8 t q v.v.$ 0 / A.S.S.i.u.1.:.:.9.N.9.9.9.i.i.i.a.p.p.p.s.S.",
"S.a.i.B.F.S.S.a.p.i.9.q.q.q.i.S.S.H.L.G.S.i.u.i.i.S.L.L.p.B.>.* X O 2 t ; ' . l b.N.A.A.i.q.1.;.;.u.i.i.i.i.p.S.a.p.a.a.p.p.F.S.",
"D.a.i.i.p.S.p.a.a.i.q.1.=.1.u.i.p.L.L.L.L.S.i.i.i.S.L.L.a.N.+.# + + 5 3 # E.x w 0.M.i.N.u.:.1.;.:.i.B.B.a.a.a.L.L.L.L.L.p.p.B.B.",
"a.y.8.9.9.i.S.p.p.i.q.:.1.1.;.:.i.a.S.S.p.p.i.p.a.S.p.S.i.N.d X 3 5 2 < & ' :Xx a 8.9.9.;.;.N.N.N.i.B.i.i.p.s.P.Y.).).).B.p.9.u.",
"i.u.9.9.9.p.U.Y.L.p.u.i.i.u.i.i.a.p.i.B.i.i.i.H.H.p.p.i.q.v @ 4 8 3 + N G ; [ ;Xx O.i.i.;.;.i.i.i.N.i.w.8.i.p.p.L.Y.Y.Y.a.i.8.9.",
"H.p.i.i.u.B.S.U.).L.a.i.i.B.B.i.i.9.w.9.9.1.:.B.p.p.i.N.M.K X 2 6 + m U R A y *.|./ F.U.I.F.H.S.p.u.w.9.8.u.p.U.L.K.G.S.a.S.S.L.",
"L.s.p.a.a.p.p.L.Y.(.s.a.a.a.S.i.i.8.q.:.;.;.;.i.i.a.p.S.<.= - 8 2 2 P R P B U G A = q.T.T.T.U.S.p.u.w.9.9.u.p.U.U.H.p.a.a.s.K.).",
"P.L.L.p.p.S.a.p.L.K.s.K.).).S.p.N.8.1.1.:.:.;.:.i.i.p.i.,.* 3 8 , M R P m N P R Y ; =.G.Y.U.L.S.p.i.A.a.i.9.9.y.y.i.i.p.L.L.L.P.",
"G.s.S.a.A.i.u.i.B.S.p.L.).(.S.a.i.i.u.i.i.i.i.N.N.u.9.1.] - 5 M < S P S 6 M B S A - %.B.S.p.p.i.i.p.i.a.a.a.p.p.i.u.u.A.a.a.s.G.",
"S.S.y.u.w.w.9.w.u.B.p.S.G.G.a.p.p.a.i.i.p.p.N.i.i.u.u.q.# 4 5 2 < P P 7 < 7 7 7 - f M.S.i.9.9.u.p.p.a.a.S.s.H.p.i.i.w.w.w.u.S.G.",
"L.a.9.4.9.8.8.w.w.N.N.i.i.p.p.i.a.i.w.8.i.a.a.S.a.S.B.@.* 2 8 6 2 D D < < M N M * c N.B.u.:.:.:.i.i.S.L.L.L.S.i.u.i.8.w.q.8.i.N.",
"a.S.U.S.p.9.i.9.:.:.;.;.1.N.i.a.i.9.9.9.i.a.L.K.a.S.N.= - 8 8 + < S D 1 < D U V 5 R.F.u.-.1.:.;.:.9.i.p.a.i.i.:.:.-.:.N.i.8.i.u.",
"p.S.T.H.G.a.S.i.u.;.;.;.;.u.i.i.p.u.u.i.H.G.L.K.L.S.,.* - 8 8   O N D D 7 B R G u V.B.i.i.u.u.u.:.u.i.a.B.B.i.:.-.:.u.A.i.u.u.u.",
"9.N.U.U.L.U.L.S.i.1.=.;.;.;.i.A.i.a.a.s.L.U.Y.U.K.S.c # 3 8 2   o 6 S R P > V U g b.N.p.i.B.B.N.q.B.a.S.B.p.i.:.:.:.N.S.S.a.u.i.",
"9.9.9.9.9.H.S.a.p.i.8.:.:.u.N.B.p.L.G.p.p.H.L.K.U.N.h * 5 5 +       6 N U U < 7 3 ] N.a.p.B.i.N.U.U.U.Y.U.S.B.N.u.8.S.S.S.y.9.9.",
"u.w.8.u.i.S.S.H.L.U.S.i.i.u.u.i.H.Y.L.L.p.s.s.a.i.-.h - 8 4     O +   + N Y Y 6 . d C.i.i.i.i.a.S.s.L.K.L.a.i.i.i.8.9.i.a.p.y.i.",
"i.9.9.i.i.p.H.U.Y.Y.T.S.i.w.9.u.Y.T.P.P.p.p.a.i.8.b X 2 8 2     O + + O o < S Y G # ,.N.i.i.i.i.i.i.S.L.s.p.i.N.w.8.9.i.i.N.i.N.",
"L.S.S.B.B.i.p.p.s.G.L.S.i.9.9.9.p.K.).P.L.U.U.N.q.K X 6 8 +     O + + + O o < N { n.= 1.8.9.u.a.S.p.p.a.a.a.i.8.8.8.i.a.i.p.i.S.",
"K.L.a.i.N.u.q.u.i.B.S.S.a.i.u.y.p.L.S.L.G.G.S.B.b.H X 6 8 O   o + + + O , , O . `.+X0 0.8.9.u.a.p.H.s.p.p.i.u.8.8.9.a.H.L.L.p.i.",
").K.F.N.q.-.:.:.9.i.p.S.S.S.S.s.p.p.p.p.p.i.i.q.1.* - 8 8     + + , + + , + + . _ #Xz ,.i.9.i.p.L.U.K.L.H.S.u.9.p.G.L.Y.).Y.H.H.",
"Y.Y.L.i.:.;.:.:.1.u.p.H.Y.L.L.S.p.i.a.p.i.9.9.q.c.# - 5 4   o + + 2 < 2 2 , + + . . X 1.B.B.i.p.).).).).U.S.p.p.L.U.).(.).Y.U.U.",
"s.a.p.i.N.u.:.i.B.i.p.S.G.a.a.p.i.N.i.i.9.9.9.N.x.* 4 8 -   + + , 2 2 2 6 % 3 3 + - @ >.N.N.i.p.a.a.a.a.a.p.p.p.a.a.).).K.a.a.a.",
"a.a.p.p.B.i.t.i.p.p.p.a.S.p.a.i.i.i.a.p.t.t.u.b.* - 8 t O O , , < < 6 8 7 < 2 2 2 Z o f Z.u.u.u.u.p.a.L.G.L.G.G.a.a.L.H.S.a.i.a.",
"i.a.S.p.S.p.i.i.S.i.i.a.i.p.i.i.i.i.a.a.a.p.B.1.X 2 8 5 o O , < < < 2 7 5 % 2 6 6 D 3 F c.1.:.:.u.i.S.U.U.U.).L.S.B.i.i.i.i.a.a.",
"y.H.T.(.T.p.a.N.i.9.8.9.8.9.8.9.:.B.S.G.Y.Y.T.V.X 2 8 8   + + % % 2 6 8 5 3 8 7 6 R 5 h 1.:.q.i.i.i.p.p.p.S.U.p.B.i.8.8.8.8.p.p.",
"t.S.H.L.L.p.p.i.i.w.8.8.8.u.u.u.9.i.S.L.).K.U.n * 2 8 5   O + < 2 2 7 M 3 3 M 7 7 W Z g >.1.u.i.N.i.i.p.p.S.L.a.B.i.9.8.8.9.w.u.",
"t.p.p.p.a.p.s.i.i.u.9.9.9.p.i.i.8.i.I.U.Y.L.N.j * 5 8 2 O O + 3 2 2 7 M 2 6 M m m W Y @ c N.i.i.N.i.i.i.p.a.p.p.p.p.i.9.9.9.8.8.",
"i.s.U.Y.Y.Y.T.S.i.a.U.T.(.T.S.B.u.q.9.i.S.S.1.h - 8 2 O + + < 2 < 5 M N 6 8 B B m h.h.o c N.N.i.i.8.9.9.p.S.S.L.L.L.L.a.i.i.N.N.",
"i.i.a.p.s.).).S.p.i.a.L.).(.S.p.N.i.B.i.a.S.K X 4 8 2   + + 2 2 < 7 N M 6 M N B m h.h.O c 1.u.N.N.8.9.9.i.a.a.L.L.H.a.i.i.N.N.N.",
"u.i.p.a.a.L.S.i.u.N.p.S.L.L.S.i.u.u.u.u.w.N.K X 5 8 + O + , 2 , 6 7 N 7 6 N B N m W h.< H <.q.w.N.u.y.y.p.p.a.S.S.S.u.u.u.u.i.A.",
"y.i.i.i.i.i.9.8.w.N.i.a.a.a.p.i.8.8.8.8.8.0.J X 5 5 O O + < 2 < 2 8 N 6 6 N N m 1 h.h.7 s x.:.:.p.p.p.p.p.p.i.i.i.u.:.:.<.1.N.N.",
"t.p.a.y.9.9.9.8.q.w.N.p.S.H.p.N.N.i.w.8.q. .# 3 8 2   + + < < < 6 M M 6 5 Z S 7 1 h.h.N . x.N.B.U.Y.Y.U.p.i.i.i.u.9.w.1.;.1.:.9.",
"p.p.i.i.y.u.u.w.w.9.i.p.G.L.S.p.i.i.u.w.u. .X 5 8 + o + + 2 2 6 7 M M 6 7 S S < m f.h.L % c.N.p.G.Y.).).p.i.u.i.p.9.u.u.q.w.9.t.",
"i.i.i.a.S.S.a.i.i.9.i.i.B.S.S.a.p.p.a.N.N.+.X 8 8 O o + + 2 , 6 7 m m 6 m S S < C f.g.T 3 x.B.p.s.Y.U.U.i.w.9.w.u.i.N.i.i.i.i.a.",
"p.S.T.T.Y.Y.a.a.i.u.:.;.;.:.i.N.p.p.U.T.F.= - 8 2   + , 2 < % 5 M N m 7 N S N , L h.g.R 3 &.N.p.p.a.i.i.i.u.8.9.w.i.S.i.i.N.N.N.",
"p.p.G.Y.Y.L.G.a.p.:.;.;.;.-.u.N.i.a.L.U.E.= 4 8 +   + + 2 + < 8 7 N 7 7 N S N < I f.f.W t # q.i.i.y.u.u.u.q.w.w.u.i.S.S.i.p.i.N.",
"i.i.p.L.Y.K.).L.S.9.1.;.1.:.i.i.i.i.p.I.p * 4 8 +   + 2 2 + 6 M 8 M 6 5 N N 8 O I h.f.f.S ; ,.N.p.9.:.:.:.q.w.u.i.p.Y.U.p.i.:.i.",
"9.a.p.p.p.p.p.L.H.H.B.N.N.N.8.8.8.w.N.1.* - 8 2   O + 2 , , 7 M N 7 6 8 N N 5 O P f.T k.R 3 ,.q.N.i.u.;.:.N.i.p.G.L.K.K.a.u.:.:.",
"S.a.p.9.9.9.9.p.G.Y.U.U.B.i.9.9.8.i.b.c * 2 8 O O + + 2 , 2 7 N M 7 6 N N N 2 O P f.T k.h.t &.N.N.i.u.;.;.N.i.p.p.a.p.p.p.i.i.B.",
"G.s.a.9.9.9.w.p.s.Y.Y.L.p.S.y.w.9.M.@.X 4 8 2   + + + O + 6 7 M 7 6 7 N N 7 < 2 T T T k.k.S d M.N.u.1.<.;.u.u.p.i.u.p.p.u.i.i.B.",
"d.s.p.9.9.u.a.p.s.T.Y.S.p.U.S.i.i.N.s X 5 8 + o + , + O + 2 7 N 7 6 7 N M 8 < 6 T T C j.k.U d M.N.:.<.<.<.:.q.i.u.9.i.u.w.i.S.S.",
"K.Y.).S.i.S.).Y.Y.Y.Y.S.p.S.p.N.N.| * 5 8 2   O , + O O % 2 5 7 2 2 8 N 8 7 , m R I B R j.W ; l N.N.u.;.1.u.N.N.u.9.8.w.i.i.N.N.",
"L.L.L.a.a.a.L.L.L.S.G.a.i.i.i.N.<.h - 4 2 O O + + O O O + 2 6 6 6 2 8 N 7 2 > M R B m B R R 5 . q.i.u.9.i.B.G.p.i.w.8.8.u.9.i.p.",
"S.S.p.p.y.a.a.a.i.4.4.u.i.i.i.M.K @ * * @ @ @ X @ @ X X X * - * + % - ; - X % t t 3 % - A A ; . M.p.p.p.T.(.Y.p.u.8.-.-.-.-.u.i.",
"i.i.p.H.H.(.T.H.i.9.9.i.i.i.:.<.@.| ..@.@.+.@.%.%.X.%.%.%.%.%.@.+.@.%.,.b.b.b.b.b.b.<.%.+.+.@.%.i.a.G.).).Y.Y.T.B.9.:.1.=.=.=.=.",
"w.i.S.U.Y.(.].H.S.S.S.B.S.B.1.<.1.1.M.N.N.q.M.C.B.B.N.N.M.b.1.1.1.M.B.S.B.N.I.L.U.S.F.B.q.q.M.N.S.a.L.L.s.s.p.p.u.u.u.1.=.=.=.<."
};
