/* XPM */
static char *a141ccbce58247429c8e7a90dcfa6d47[] = {
/* columns rows colors chars-per-pixel */
"64 64 218 2 ",
"   c #050504",
".  c #0A0401",
"X  c #070905",
"o  c #0C0B02",
"O  c #060608",
"+  c #0A0709",
"@  c #070908",
"#  c #0C0B0C",
"$  c #110601",
"%  c #120D04",
"&  c #1C0B03",
"*  c #120D0B",
"=  c #1C0E0F",
"-  c #1B0000",
";  c #0E1003",
":  c #131104",
">  c #1B1303",
",  c #13110D",
"<  c #1B140C",
"1  c #17180A",
"2  c #0D0712",
"3  c #0E0D11",
"4  c #120D13",
"5  c #150D1A",
"6  c #141314",
"7  c #191515",
"8  c #1B1915",
"9  c #161319",
"0  c #1A151C",
"q  c #1C1A1C",
"w  c #171918",
"e  c #210E04",
"r  c #200600",
"t  c #231300",
"y  c #24140C",
"u  c #291A06",
"i  c #321C02",
"p  c #381706",
"a  c #231A13",
"s  c #231C1C",
"d  c #2C1D1C",
"f  c #2A1710",
"g  c #381D12",
"h  c #2E2A0D",
"j  c #3A2A0F",
"k  c #362609",
"l  c #272315",
"z  c #2A2315",
"x  c #2A221B",
"c  c #2D2A1A",
"v  c #362513",
"b  c #332D1C",
"n  c #3C2C17",
"m  c #35311C",
"M  c #3B331B",
"N  c #3D3517",
"B  c #1B1421",
"V  c #1E1A21",
"C  c #221C24",
"Z  c #281F26",
"A  c #241D29",
"S  c #291E2B",
"D  c #2A1F30",
"F  c #262124",
"G  c #2E2D20",
"H  c #26212A",
"J  c #2A232D",
"K  c #2B2425",
"L  c #31252B",
"P  c #352F21",
"I  c #353224",
"U  c #393522",
"Y  c #3C3B23",
"T  c #3E3B28",
"R  c #2D2533",
"E  c #2E2834",
"W  c #312635",
"Q  c #322934",
"!  c #342B3A",
"~  c #392D3E",
"^  c #33263A",
"/  c #3A323F",
"(  c #4F2A0F",
")  c #4D2B12",
"_  c #442A1B",
"`  c #493419",
"'  c #613A1B",
"]  c #42332B",
"[  c #413F29",
"{  c #473727",
"}  c #483636",
"|  c #3F412B",
" . c #64421C",
".. c #494225",
"X. c #45432B",
"o. c #4A452D",
"O. c #4D482A",
"+. c #4E4824",
"@. c #544A2C",
"#. c #564124",
"$. c #464430",
"%. c #4A4634",
"&. c #4D4933",
"*. c #4C4B3C",
"=. c #444438",
"-. c #524E34",
";. c #5D4E33",
":. c #534E39",
">. c #584335",
",. c #555534",
"<. c #5A5633",
"1. c #575935",
"2. c #5C5A35",
"3. c #54533B",
"4. c #5A563B",
"5. c #575939",
"6. c #5C5B3A",
"7. c #59542C",
"8. c #64432B",
"9. c #664A2A",
"0. c #615A2E",
"q. c #654D3C",
"w. c #754C34",
"e. c #615534",
"r. c #635B35",
"t. c #685F36",
"y. c #645D3A",
"u. c #695F39",
"i. c #745133",
"p. c #7A5936",
"a. c #754926",
"s. c #656135",
"d. c #696237",
"f. c #65623B",
"g. c #6C653D",
"h. c #6E693D",
"j. c #70663D",
"k. c #716A3E",
"l. c #73713E",
"z. c #362D41",
"x. c #3A2E41",
"c. c #3B3142",
"v. c #423549",
"b. c #45384C",
"n. c #5E5B43",
"m. c #5C5846",
"M. c #594841",
"N. c #634B41",
"B. c #625D41",
"V. c #675A46",
"C. c #7C5C51",
"Z. c #666242",
"A. c #6D6641",
"S. c #6D6942",
"D. c #6A654B",
"F. c #67654C",
"G. c #716641",
"H. c #736C42",
"J. c #796E44",
"K. c #736E4A",
"L. c #767142",
"P. c #767044",
"I. c #767143",
"U. c #7A7545",
"Y. c #7C7547",
"T. c #7A7345",
"R. c #7D7A46",
"E. c #76724B",
"W. c #7C7649",
"Q. c #7E7949",
"!. c #7E794A",
"~. c #726655",
"^. c #7D7954",
"/. c #787451",
"(. c #845423",
"). c #815E3B",
"_. c #875E4A",
"`. c #856043",
"'. c #807A4A",
"]. c #807C4D",
"[. c #817A4B",
"{. c #81794A",
"}. c #916D55",
"|. c #827F52",
" X c #957156",
".X c #97715C",
"XX c #83685D",
"oX c #A57E5D",
"OX c #A77447",
"+X c #8D7B6D",
"@X c #907365",
"#X c #A27E65",
"$X c #A4825D",
"%X c #BB895A",
"&X c #A78A76",
"*X c #AA8974",
"=X c #A98D7C",
"-X c #B48F72",
";X c #B7947A",
":X c #AD8A6A",
">X c #CA9A77",
",X c #C8A07D",
"<X c #AF9D8F",
"1X c #B09989",
"2X c #CB9D82",
"3X c #CDA183",
"4X c #C9A286",
"5X c #DEAD85",
"6X c #D0AB90",
"7X c #DBB090",
"8X c #E3B38D",
"9X c #EBBA94",
"0X c #E8B999",
"qX c #F5BF95",
"wX c #F7BF9C",
"eX c #F7C197",
"rX c #F6C19B",
"tX c #FAC09A",
/* pixels */
"h.h.j.T.[.'.[.Q.W.H.A.k.L.L.h.g.g.h.g.A.A.u.r.A.G.g.H.g.<.1.1.,.1.1.2.g.A.A.H.H.L.H.f.r.r.g.T.Y.J.k.G.G.A.t.2.A.A.f.s.r.7.<.y.f.",
"h.h.k.L.[.Q.Q.L.H.H.h.h.k.k.h.h.g.g.g.g.A.2.+.g.g.k f.S.S.Z.5.5.5.y.g.g.g.g.H.H.T.L.g.g.f.H.T.T.k.h.g.A.g.r.2.f.f.s.r.r.f.g.A.g.",
"k.j.{.W.Y.h.h.Q.].Q.k.H.T.P.k.h.r.2.r.r.A.,.t k i G.& ^.^./.X.4.B.2.2.r.g.g.j.H.Y.].[.W.H.A.k.h.g.s.r.r.f.f.1.1.1.<.r.f.g.j.A.h.",
"g.H.J.P.H.h.h.L.T.Q.j.k.H.H.h.r.2.r.r.r.y.@.n ` p $X` ....U . z U m 4.r.t.t.g.k.H.P.L.k.g.A.h.h.h.s.2.r.2.2.1.1.1.<.r.u.j.k.H.H.",
"g.h.h.h.h.h.g.g.T.Y.k.A.A.g.g.h.g.f.f.y.5.O.9. .(.%Xp.t y x F F s . b 6.r.r.g.g.A.g.g.g.g.A.g.k.[.k.s.s.r.2.<.2.f.g.W.!.[.Y.H.H.",
"t.g.h.d.T.Q.h.h.h.h.t.r.r.g.g.g.f.t.r.1.5.<.k ).%XOX9._ y s s C q 6 % &.A.h.r.r.r.<.,.1.<.A.g.k.[.[.].].h.g.g.f.g.h.h.k.Q.T.g.A.",
"t.g.T.T.Q.Q.Q.k.g.t.t.y.6.y.6.6.y.f.f.f.Z.r.i 8.i.' ) >.n a * 9 V 7 % &.y.u.r.r.r.2.1.1.<.g.A.g.H.[.Q.Q.L.H.g.h.h.g.g.k.P.H.t.t.",
"u.g.T.W.Q.].].k.h.t.u.y.2.5.5.5.1.f.g.A.A.@.r 8.8.p - e > % . q q O o % 4.r.r.r.u.y.6.6.1.f.A.H.k.[.[.T.T.k.g.k.k.k.h.k.H.h.r.r.",
"r.r.r.h.k.[.[.H.h.A.A.f.2.6.5.5.5.1.f.A.y.t  X0X4X#X_ y x 8 + 4 # # * o 5.r.r.g.H.g.y.1.2.<.g.T.[.[.T.h.j.h.h.P.L.T.L.j.d.r.r.r.",
"u.t.g.g.H.H.k.k.k.k.h.g.f.f.5.5.1.1.f.A.y.j 6X2Xw.#X@Xe a F s 7 , , # o B.A.A.H.k.h.g.f.f.f.h.k.L.T.H.H.k.h.h.P.L.L.T.L.H.g.g.A.",
"g.h.g.A.A.g.h.h.k.k.k.h.g.f.2.2.2.2.f.A.6.n ;X) `.).}.q.< s q 7 7 @ @ X Z.S.A.H.H.H.g.g.g.g.h.g.k.h.H.A.g.h.h.H.P.T.T.T.P.k.H.P.",
"H.g.r.r.r.t.g.k.T.].k.k.g.r.g.g.A.A.g.A.;.n *X( oX:X7X Xu ] x * 6 , , 1 5.2.r.f.k.h.u.t.g.h.g.h.A.r.2.2.f.A.g.H.g.k.H.T.T.H.H.T.",
"A.g.g.u.e.t.j.W.[.[.Q.k.g.r.r.u.f.g.H.g.;.` 4Xa.8X5XrX>Xw.&XM.* 7 6 % $.5.f.g.h.k.k.h.h.h.h.s.s.f.6.6.6.6.y.f.A.A.A.k.k.k.h.k.H.",
"r.r.A.g.g.g.j.k.L.L.Q.H.g.g.r.r.r.u.g.G.` &X0X>XqXqXeXrX3X*Xf * 7 # I n.Z.S.h.L.T.T.T.H.j.L.P.H.6.6.6.1.5.6.2.u.u.t.g.h.h.h.k.k.",
"1.6.f.g.H.A.k.g.h.k.!.H.g.A.t.r.t.r.f.A.N i ,XeXeXeXtX0X_.g % , @ @ =.[ -.S.Y.T.R.R.U.Y.k.Q.Q.Y.y.y.1.1.6.6.2.r.r.r.g.k.k.k.k.H.",
"1.1.1.f.A.k.j.k.h.h.A.A.h.g.g.g.g.A.h.A.y.j $X9XeXeXwX2XC.& * @ @ @ X X h E.Q.Q.R.R.R.R.L.W.T.E.A.f.g.S.A.2.2.y.g.H.Q.Q.R.Q.T.H.",
"f.2.<.f.h.P.T.k.g.t.r.g.A.A.g.j.j.t.r.u.y.;.i.3X9X9X>Xw.& s F q 6 6 , o N H.H.Y.Q.!.{.Y.k.k.k.A.g.g.g.A.f.y.r.A.g.H.Q.Q.Y.T.k.H.",
"A.<.<.f.H.Y.W.k.f.r.2.g.A.g.H.k.j.t.t.t.r.u.#.:X-X;X.Xp s F 0 q , o % T A.H.g.L.T.T.T.T.h.h.A.g.g.g.g.A.r.r.y.A.g.h.T.L.k.k.h.k.",
"H.g.g.H.W.Y.[.k.h.g.r.f.A.A.H.Y.T.W.T.H.r.y.N t & q.N.y s w 6 , o . U B.g.g.g.h.h.h.h.h.h.g.f.6.2.<.r.A.t.r.t.g.g.f.k.h.h.h.k.H.",
"H.H.g.A.H.H.H.k.h.g.r.y.y.y.g.H.H.T.T.L.A.A.Z.D.b . ] = s 7 @ X , *.n.y.t.s.f.r.f.A.h.g.g.6.6.5.1.f.f.g.g.g.h.H.k.h.k.k.h.h.H.H.",
"J.k.A.g.h.H.h.k.h.g.y.6.1.6.f.g.h.P.T.T.W.H.A.B.u v ~.$ 6 9 # # , %.Z.g.g.d.s.f.r.g.g.A.g.2.1.2.2.g.A.A.k.k.j.T.T.T.T.T.h.h.A.A.",
"j.d.r.t.r.g.H.h.h.g.y.2.6.6.1.2.h.h.h.k.H.A.A.j v <X] * * 6 q 6 o l A.g.h.k.g.f.r.t.r.t.2.<.A.A.A.g.A.g.g.h.k.Y.Q.[.[.[.A.h.r.f.",
"g.f.r.r.r.h.W.Q.T.h.f.g.g.f.g.g.g.g.A.h.g.g.e.j 1X{ = J C # 6 q 6   [ A.g.h.r.r.r.u.g.g.2.<.g.g.g.A.g.u.r.g.h.h.T.Q.Q.Q.h.g.r.t.",
"P.h.g.g.f.A.H.W.[.T.j.g.g.A.A.g.A.u.y.2.y.6.M +X>.d J ! Q 0 # w 7 o [ E.A.g.r.y.g.A.H.Y.I.I.T.k.h.f.u.r.r.f.h.Y.T.R.L.H.k.H.H.T.",
"T.k.h.k.k.h.h.T.Q.].k.j.j.k.H.g.A.t.2.6.5.X.> d L Q Z J Q J 6 6 q , > y.A.g.r.y.A.A.Y.Q.Q.Q.Y.H.h.f.u.r.t.f.h.Y.Y.H.h.k.k.k.Y.[.",
"R.T.T.h.h.H.k.h.T.Y.k.Y.[.[.H.h.g.r.2.2.5.$.7 Q Q W C B J Q q # q w : n.S.A.f.2.f.g.h.L.Q.T.Y.H.k.A.G.j.g.t.r.d.s.g.g.h.T.T.T.R.",
"L.k.H.k.G.g.f.g.A.H.h.T.[.].H.k.g.g.g.A.A.-., J J A V 0 H Q H 6 q w , Y 6.<.,.5.5.2.g.h.H.h.h.h.g.h.g.k.k.k.h.h.g.f.f.G.k.k.k.L.",
"H.H.d.f.u.u.t.u.f.A.h.H.L.L.k.h.h.h.g.g.g.D.G 6 0 B 0 4 0 R E 5 7 q , o 4.1.1.1.1.2.g.A.A.f.y.r.A.h.k.j.H.k.P.h.g.g.u.u.u.f.H.L.",
"T.j.r.0.r.r.r.u.u.A.S.g.g.h.h.g.h.h.u.t.g.A.b * C C C 5 5 J R 9 9 q q o X.Z.S.S.A.H.h.g.f.2.6.1.f.g.H.T.T.T.H.g.f.g.r.u.r.r.g.A.",
"k.H.W.H.h.r.g.t.2.2.1.1.1.A.g.k.g.t.r.t.g.S.D.8 Z Q J 4 9 R H 3 # q q , : D.A.L.W.W.H.f.2.1.1.1.6.r.g.h.k.g.g.<.2.<.2.A.g.r.g.f.",
"g.H.!.P.L.k.H.g.f.1.1.1.1.f.g.g.A.f.f.h.H.E.D.a L Q Z 9 J J C @ O q q , : 4.S.H.P.H.H.g.f.f.f.f.2.f.g.k.A.A.g.<.<.2.f.G.g.f.f.f.",
"t.A.Y.W.T.Y.T.H.g.2.1.1.1.1.g.A.g.k.k.H.T.W.~.z Q S 2 R ! H w O   6 q 7 : m S.h.h.H.g.G.H.g.A.g.y.A.k.H.A.g.g.2.2.2.A.H.H.j.f.g.",
"t.r.r.r.t.P.H.k.h.g.r.2.2.f.A.h.h.T.H.h.h.E.X.< 0 3 E Q C 9 O O   # q 8 % U E.H.g.g.g.A.h.h.g.g.Y.W.W.Q.W.H.A.A.f.r.H.H.H.d.r.r.",
"f.u.r.f.g.H.H.P.T.W.H.g.g.f.f.g.T.Q.T.P.g.A.z . 9 Q ^ C # . # #     6 q , m S.P.P.E.H.g.g.g.g.h.H.k.T.Y.T.k.g.g.g.r.t.g.k.h.d.g.",
"g.t.t.g.g.h.P.Y.Q.Q.!.H.g.u.r.f.W.[.Q.W.S.,.$ L Q H 5 O # * # #     6 q 6 o O.E.W.P.H.g.j.j.g.g.g.g.H.T.k.h.g.A.u.r.t.g.g.A.g.A.",
"T.H.H.A.A.g.h.h.k.L.T.H.g.t.r.t.k.W.[.Q.H.> V.} C 4 O @ * # # #     # q 6 o &.^.W.A.g.d.r.r.g.j.H.h.h.k.k.k.g.r.r.r.g.k.g.h.g.H.",
"Y.T.k.g.A.f.y.f.g.S.H.A.k.g.f.d.h.H.L.W.Z.t =XXX. O # 4 # # # @ O   @ q 7 o Y S.H.A.g.f.r.r.g.g.h.P.H.h.h.g.f.r.r.t.k.P.T.T.h.g.",
"[.Y.H.A.y.<.2.2.r.g.h.H.H.H.H.k.h.h.h.A.y.n =X{ . # # 4 4 # 3 # #   O q q , : 5.f.f.A.g.u.u.g.g.T.W.Y.T.P.H.f.t.g.H.T.Q.[.Q.P.P.",
"Q.Q.T.g.2.1.2.2.2.f.h.I.Q.T.T.H.h.g.g.A.6.o $ . # # 4 9 7 3 6 # # O O 7 q 6 o 3.5.1.f.S.h.g.G.k.[.[.Q.Q.W.H.h.h.T.W.[.[.[.Q.Y.W.",
"k.k.h.g.A.f.<.g.A.g.h.H.L.k.k.h.h.h.h.A.:.o 6 3 6 6 * w 6 6 6 # # @ O 6 V 7 o *.5.5.6.2.g.h.g.A.k.j.j.j.j.h.h.h.j.j.[.[.Y.k.k.k.",
"k.k.h.h.A.g.t.g.h.h.h.k.H.g.k.h.h.g.h.A.b . Z 5 9 6 4 q 0 7 3 3 3 3 + + s q , ; n.6.5.1.f.f.f.f.f.h.k.T.L.L.L.L.k.k.T.P.H.k.g.k.",
"g.k.H.h.H.g.g.g.H.h.g.k.g.g.g.g.g.h.h.A.P * R 0 9 9 4 q q 6 6 5 3 3 + O q q 6 o F.f.y.r.1.2.2.2.f.g.H.W.W.W.[.T.H.A.g.g.g.g.k.k.",
"d.P.!.].!.h.k.A.g.r.r.r.r.r.r.r.r.g.H.E.I q ! 9 0 q 4 0 C 9 6 5 3 3 #   q q 6 : 6.A.A.f.2.1.f.A.A.g.h.h.h.H.W.h.A.g.r.r.r.r.h.h.",
"s.H.P.T.T.h.h.g.g.u.r.r.r.u.f.f.<.g.P.A.c C / 0 0 q 6 9 C 0 6 6 6 # # O 7 q w : M H.H.g.f.y.f.A.A.g.g.h.h.H.T.k.A.g.t.r.r.r.u.f.",
"s.h.h.h.j.h.k.g.g.f.t.r.r.h.g.g.r.A.K.[ . Q / 5 0 0 7 6 V 0 6 4 6 3 # + 6 q q , M W.T.k.g.g.g.g.A.g.g.g.h.k.h.h.h.h.g.t.r.r.r.r.",
"g.k.Y.Q.Q.Q.!.H.g.k.W.!.].!.H.A.f.y.y.m # c.c.B Z Z q 7 C C w 4 6 6 3 # @ w q , m 6.g.h.A.f.g.g.g.r.r.r.h.H.H.T.T.T.T.k.g.g.A.A.",
"g.g.k.h.k.[.[.H.h.g.k.T.[.].H.k.g.A.A.m + c.c.B A A q 6 q C 0 4 6 6 # # O 6 q 6 o Y A.g.A.2.g.g.A.r.r.r.g.k.k.T.T.P.k.g.g.A.A.A.",
"f.g.h.k.h.T.H.g.f.A.h.H.T.T.H.g.f.f.Z.m 4 c.c.B A A C 6 0 C 0 6 # 6 3 # @ # q 7 o I Z.f.f.2.r.f.g.f.d.d.h.h.k.H.H.k.f.f.f.f.g.A.",
"d.g.g.g.g.g.r.r.u.A.g.j.k.k.h.g.r.r.6.l 0 c.c.5 B C Z 9 9 V 0 6 4 6 3 # @ @ q q o G 3.5.5.2.2.2.h.h.h.h.g.g.g.g.h.f.<.1.5.5.A.A.",
"s.h.k.d.t.t.r.r.r.u.A.h.H.P.h.A.g.A.3.. C c.c.5 0 H F w 9 V V 7 4 4 6 # @ O 7 q 6 o | 5.5.A.A.S.Y.Q.Q.Y.h.g.g.g.f.<.f.6.1.6.2.r.",
"h.h.g.g.f.f.f.u.u.r.g.h.L.T.H.j.g.A.4.* J c.c.B 5 J H 0 9 V C 0 6 6 6 # @ O # q w o X.6.f.g.h.k.L.Q.[.[.h.g.g.g.g.t.f.f.u.y.u.u.",
"g.g.g.k.H.H.j.g.g.r.g.g.A.H.H.k.g.A.m., E x.x.S 5 A H 0 9 0 0 w 7 # 4 # # O @ q q o $.A.A.g.g.h.k.Q.W.W.h.u.r.f.f.g.A.g.A.g.g.j.",
"h.H.!.!.Q.Q.j.k.g.f.<.1.1.<.g.A.h.S.m.6 ! z.c.E 3 C A C 9 q C q w 3 5 6 # @ O 6 q , > B.A.h.k.g.g.h.g.g.g.g.r.r.u.g.H.g.g.k.h.h.",
"h.h.L.Q.Q.T.L.k.h.2.1.1.1.<.f.A.g.y.: q ~ z.x.R 3 C H C w w C q q 6 3 6 # # O # q 6 % D.K.g.h.g.g.f.f.f.f.y.t.u.g.g.H.H.g.h.h.g.",
"g.g.h.T.Q.Y.[.T.H.r.2.1.6.2.g.g.g.6.< J z.z.c.R 2 B A C 9 9 V V V 9 4 5 6 # O # q 6 , l /.g.g.g.h.r.<.<.2.y.u.f.g.h.!.W.h.h.<.g.",
"t.k.h.h.h.h.h.T.P.I.S.S.S.A.r.r.r.4.7 ^ v.! x.W 2 0 C C 0 9 q C V w 3 # 6 # @ O 6 q , : -.y.r.t.h.g.f.1.2.S.g.h.H.Y.W.W.j.f.2.2.",
"H.k.h.t.r.r.t.h.H.Q.W.Y.S.g.t.r.r.:.Z c.v.^ ~ W 2 5 C Z C w 0 V V w 4 # 6 # @ @ @ w 9 * c <.f.g.g.g.f.1.1.S.g.g.g.H.h.k.h.g.g.A.",
"L.k.k.t.r.t.u.h.L.Q.Q.T.h.H.s.u.4.z S b.v.R ^ W 5 5 V C C 0 9 0 q q 6 # # # # @   6 q 7 o o.A.g.A.f.6.1.1.f.f.h.g.f.A.g.f.g.g.A.",
"l.k.h.r.r.f.k.h.k.!.Q.k.h.W.H.A.V.x W b.c.D ^ W 0 3 q V C 0 9 q V q 6 # # # # # O # q q % a Z.A.A.2.5.5.5.1.y.g.f.r.g.f.t.g.k.h.",
"R.Q.[.H.g.H.[.Q.Q.Q.Q.H.h.k.g.A.b , ~ c.^ A R Q 0 3 0 q C q 9 7 0 q 6 # + # # # O O 6 q w : X.A.A.g.f.5.5.f.A.H.f.r.r.u.g.g.g.g.",
"T.T.T.k.j.j.T.T.T.H.H.k.j.g.g.6.. 7 ~ ^ J B A Q q # 6 0 C V 9 9 6 7 7 6 # + O # @ O X 6 7 , m Z.S.g.f.r.g.A.P.h.g.u.e.r.u.u.g.A.",
"H.H.h.h.d.j.k.j.h.0.0.f.g.g.g.6.  , K K 6 * q s s o * , 7 6 * * , , : o o o     X X   X : % o -.H.h.h.h.!.!.!.h.f.r.<.<.<.<.f.g.",
"g.g.h.H.P.].!.P.g.t.t.g.g.g.2.1.X.| &.:.-.o.%.:.,.-.:.:.:.:.:.&.$.&.-.5.B.B.B.y.y.y.5.-.o.o.O.u.g.k.T.Q.Q.Q.].!.A.t.2.2.1.,.,.1.",
"u.g.H.Y.Q.].|.P.H.H.H.g.A.A.6.5.5.6.Z.A.A.y.B.A.S.S.S.A.Z.B.y.6.6.Z.S.H.H.A.E.E.E.S.H.A.y.u.Z.G.k.k.T.Y.k.k.h.h.f.f.f.2.1.1.1.5."
};
