/* XPM */
static char *_a0ce6a700534163a5f838c2fe4d7352[] = {
/* columns rows colors chars-per-pixel */
"64 64 219 2 ",
"   c #1C0E1E",
".  c #1E1315",
"X  c #1C131C",
"o  c #1F191A",
"O  c #1D1815",
"+  c #270F0B",
"@  c #231402",
"#  c #2B1304",
"$  c #25130C",
"%  c #29140D",
"&  c #2E1B0C",
"*  c #391B0D",
"=  c #311B0E",
"-  c #230F1C",
";  c #251314",
":  c #2B1513",
">  c #261B13",
",  c #2F1A14",
"<  c #22141B",
"1  c #2A151C",
"2  c #251B1C",
"3  c #2B1B1D",
"4  c #341913",
"5  c #3B1B14",
"6  c #351C1D",
"7  c #3D1C1D",
"8  c #341618",
"9  c #2E2005",
"0  c #2C231D",
"q  c #3C2313",
"w  c #33221E",
"e  c #3D221B",
"r  c #34291B",
"t  c #3D2B17",
"y  c #1C0F24",
"u  c #1C0F2A",
"i  c #170E21",
"p  c #171325",
"a  c #1B1324",
"s  c #1C132A",
"d  c #1D192D",
"f  c #1F1530",
"g  c #1E1B30",
"h  c #210E23",
"j  c #210F2B",
"k  c #231323",
"l  c #2B1524",
"z  c #241923",
"x  c #2C1B24",
"c  c #22132D",
"v  c #221A2D",
"b  c #2C1A2A",
"n  c #2B132A",
"m  c #311620",
"M  c #321C24",
"N  c #3B1D23",
"B  c #341A2D",
"V  c #241433",
"C  c #291534",
"Z  c #221C32",
"A  c #2A1A35",
"S  c #261639",
"D  c #29163B",
"F  c #271839",
"G  c #2A1A3D",
"H  c #301734",
"J  c #341B30",
"K  c #2D2422",
"L  c #2D212A",
"P  c #332525",
"I  c #3C2322",
"U  c #332922",
"Y  c #382D27",
"T  c #35272D",
"R  c #3B2229",
"E  c #342A2B",
"W  c #3B2C2B",
"Q  c #3D3425",
"!  c #3F3825",
"~  c #3C332A",
"^  c #36322F",
"/  c #232135",
"(  c #372A33",
")  c #3C3332",
"_  c #3F3B30",
"`  c #411E1D",
"'  c #47201B",
"]  c #4D2D1C",
"[  c #442F1A",
"{  c #47331E",
"}  c #5A311B",
"|  c #401D22",
" . c #432322",
".. c #4B2E24",
"X. c #42282C",
"o. c #4D2E2A",
"O. c #472822",
"+. c #532D23",
"@. c #443B23",
"#. c #41352A",
"$. c #41382F",
"%. c #4A3822",
"&. c #5D3524",
"*. c #503228",
"=. c #58352F",
"-. c #533223",
";. c #423433",
":. c #463D34",
">. c #483D36",
",. c #493E3B",
"<. c #4C3430",
"1. c #543533",
"2. c #573833",
"3. c #5B3932",
"4. c #553939",
"5. c #613727",
"6. c #603C29",
"7. c #4E4026",
"8. c #4B442A",
"9. c #4F492F",
"0. c #56542E",
"q. c #59542C",
"w. c #4D4433",
"e. c #4D433A",
"r. c #4A4937",
"t. c #544C33",
"y. c #52453C",
"u. c #544C3B",
"i. c #574B35",
"p. c #555634",
"a. c #5B5632",
"s. c #575936",
"d. c #5C5A35",
"f. c #5C553C",
"g. c #565939",
"h. c #5B5B39",
"j. c #57462C",
"k. c #625A2E",
"l. c #6A4636",
"z. c #6A493F",
"x. c #644238",
"c. c #744F34",
"v. c #635B35",
"b. c #62563D",
"n. c #645D39",
"m. c #685F3A",
"M. c #615733",
"N. c #725A3C",
"B. c #7B553E",
"V. c #656035",
"C. c #696237",
"Z. c #65623B",
"A. c #6C653D",
"S. c #6E693D",
"D. c #70673D",
"F. c #716A3E",
"G. c #73713E",
"H. c #2F1B41",
"J. c #301B42",
"K. c #4F4543",
"L. c #564B42",
"P. c #5A4E48",
"I. c #594C43",
"U. c #575040",
"Y. c #5B5443",
"T. c #5C534A",
"R. c #5F584E",
"E. c #5B5942",
"W. c #615544",
"Q. c #645B42",
"!. c #6B5E43",
"~. c #63544A",
"^. c #635B49",
"/. c #75564A",
"(. c #655952",
"). c #7C5B52",
"_. c #666242",
"`. c #6E6641",
"'. c #6D6641",
"]. c #6E6941",
"[. c #6D6941",
"{. c #666049",
"}. c #6D644B",
"|. c #716741",
" X c #706642",
".X c #716A41",
"XX c #726D41",
"oX c #756E41",
"OX c #736C42",
"+X c #796E45",
"@X c #70654C",
"#X c #746B4A",
"$X c #7B6E4E",
"%X c #767142",
"&X c #767145",
"*X c #767143",
"=X c #7A7545",
"-X c #7C7546",
";X c #7A7345",
":X c #7D7946",
">X c #76714B",
",X c #7C7649",
"<X c #7E7949",
"1X c #7E7A4D",
"2X c #7E794B",
"3X c #6C6252",
"4X c #6E6158",
"5X c #736459",
"6X c #796B54",
"7X c #7A7451",
"8X c #7D7953",
"9X c #796B62",
"0X c #815844",
"qX c #8B644C",
"wX c #80774C",
"eX c #807A4B",
"rX c #807C4D",
"tX c #817A4B",
"yX c #817B53",
/* pixels */
"S.S.D.;XtXtXtX<X,XOX].F.%X%XS.A.`.A.A.D.A.v.v.OX`.OXA.A.a.a.p.p.p.a.d.].S.S.D.D.;XoXZ.M.v.A.;X-XoXF.|.|.`.v.d.].'.Z.V.v.q.a.n.Z.",
"S.S.F.%XtX<X<X%XoXOXS.S.F.F.S.S.A.A.A.S.S.m.v.`.OX`.S.OXA.A.s.s.p.Z.'.A.S.S.S.OX;X%XA.A.Z.oX;X;XF.S.A.`.A.M.d.Z.Z.V.v.v.Z.A.'.A.",
"D.D.wX,X-XS.S.<XrX<XF.oX;X*XD.S.M.M.v.v.A.A.A.A.`.].>XrX1X;XS.A.n.d.M.M.A.A.A.*X,XtX<X,XD.D.D.S.A.V.v.v.Z.Z.s.s.s.d.M.Z.A.D.`.S.",
"A.OX+X*XoXS.S.%X;X<XD.D.OXOXS.v.v.d.M.v.n.n.v.v.`.OX,X1X1X;XD.A.m.d.M.M.m.m.`.D.oX*X*XF.A.S.S.S.S.V.v.v.d.d.s.p.s.d.v.m.D.D.OXOX",
"A.S.S.S.S.S.A.A.;X-XD.|.`.A.A.S.A.A.Z.n.s.s.d.d.'.,X<X1XtX1X,Xm.m.`.A.v.M.v.Z.S.A.Z.A.Z.A.`.A.].rXF.V.V.M.d.a.d.Z.A.,X1XtX-X+XOX",
"v.A.S.C.;X<XS.S.S.S.v.M.M.A.A.A.Z.Z.d.d.h.h.s.d.m.A.OX1X1X*Xm.9 @.'.`.'.'.'.M.v.v.0.0.0.a.'.`.].tXtXrXrXS.A.A.Z.A.S.S.D.<X;XA.`.",
"v.A.;X-X<X<X<XD.A.v.v.n.h.h.h.h.n.A.Z.Z.Z.Z.Z.d.M.A.}.a.Z.#Xj.t %.i.!.Q.t.Q.n.M.v.d.s.s.s.'.A.A.oXtX<X<X%XOXA.S.S.A.A.D.*XOXv.v.",
"m.A.;X,X<XrXrXD.S.v.m.n.d.h.h.h.h.Z.A.`.`.A.Z.v.v.`.b.@ 7.b.& 5Xy.% W.{ @ Q.m.M.m.n.n.s.d.Z.A.D.F.tXtX;X;XF.A.D.D.D.S.D.OXS.v.M.",
"M.v.v.S.F.tXtXOXS.`.].Z.d.h.g.g.h.s.Z.A.A.`.A.A.D.D.N.] q 4 3 L z < : e [ b.v.A..X`.n.d.d.d.A.;XtXtX;XS.D.S.S.*X%X;X%XD.C.v.v.M.",
"m.v.A.A.OXoXF.D.D.D.S.A.Z.Z.h.h.h.s.Z.A.A.|.OX,XtX+XN.] ....; < < ; 6 e q  XA.OXOX].A.A.Z.Z.D.D.;X;XoXOXD.S.S.*X%X%X;X%XOXA.A.`.",
"A.S.A.`.`.A.S.S.D.F.D.S.A.Z.d.d.d.d.Z.A.A.A.D.<X<X+X!.* ] -.* 5 5 4 ' 5 = @X X[.OX].A.A.A.S.D.S.D.S.OX`.A.S.S.oX*X;X;X;X*XD.OX*X",
"OXA.v.M.M.v.A.D.;XrXF.D.A.v.A.A.A.'.].A.v.Z.S.S.1XyX5X$ 4 e z./.z.2.I , $ W.Q.Z.S.A.V.v.A.A.A.`.].v.d.d.Z.'.A.OXA.D.oX;X;XOXoX;X",
"].A.A.m.M.v.D.,XtXtX<XF.A.M.v.m.n.'.A.A.v.v.A.1X8X9.K z z z M P M x x k k 0 t.].].S.A.A.D.A.Z.n.Z.h.h.h.h.n.Z.`.`.`.D.F.F.S.F.OX",
"v.v.'.A.A.A.D.F.%X%X<XOXA.A.v.M.M.m.A.`.Z.A.A.OX#X! X Z Z v v k z a a v a o u.#X,X;X%XoXD.;X&X[.h.h.h.s.h.h.d.m.m.v.A.S.S.S.D.F.",
"s.h.Z.A.OX`.D.A.S.D.1XOXA.].v.v.v.M.Z.S.S.S.S..X}.! X d Z / v v v d s d v o f.1X<X:X;X-XF.<X<X,Xn.n.s.s.h.h.d.v.v.v.A.F.F.F.F.+X",
"s.s.s.Z.].D.D.D.S.S.].].S.A.A.A.|.A.OXS.A.A.A.`.}.Q X Z g d Z d p p s s a o Y.8X1X<X:X:X%X-X;X*X`.Z.A.[.'.d.d.n.A.OX<X<X:X<X;X+X",
"Z.h.d.Z.S.*X;XD.Z.v.v.A.`.`.A.D.A.v.m.Z.v.A.OX'.Q.Y X a s s d d p p s s d X u.7X1X<XtX-XD.OXD.S.A.A.A.].Z.n.n.'.A.OX<X<X-X;XF.OX",
"].d.d.Z.OX,X,XD.Z.M.d.A.`.A.OXD.A.v.v.v.v.A._.f.u.E a a p p s p a s s d a X :.^._.>X;X;XS.D.OXA.A.A.A.`.M.M.n.'.A.S.;X*XF.F.S.D.",
"+XA.A.OX1X,XtXD.S.A.v.Z.'.].+X,X,X,X;XF.M.f.e.. X X i a a p p u s s a p p p X . > ^.'.`.].'.Z.d.d.d.v.'.v.v.v.A.A.A.D.S.S.S.F.OX",
"+XOXA.].OXOXoXD.S.A.v.n.n.n.A.F.F.;X;X;X.X! K k v Z v v Z Z Z Z Z Z v d s p d a o 0 8.[.'.n.n.d.d.Z.A.A.A.A.S.OXD.S.D.D.S.S.OX+X",
"+XD.A.A.S.OXS.D.D.A.n.h.p.h.Z.A.S.*X;X;X>X8.Y X a d g g d d Z Z Z d d s p p a a o ~ t.'._.s.s.d.d.A.].].D.D.D.;X;X;X;X;XS.S.].].",
"D.C.M.v.v.A.OXS.S.A.n.d.h.h.s.d.].S.S.OX].'.u.2 a s d d d d Z d d d s s p p p X 2 U.Q.n.h.d.'.[.'.A.].A.A.S.F.:X<XtXtXtX].S.v.Z.",
"A.Z.v.v.v.S.,X<X;XS.Z.A.A.Z.A.A.`.A.S.A.A.'.{.R.X p p p p p p p p p p p p a a T T.}.A.A.d.d.`.A.A.`.A.m.M.A.S.S.;X<X<X<XS.A.M.v.",
"*XS.A.A.Z.].OX,XtX;XD.A.A.].].A.`.m.v.n.h.h.u.K X p s s p p s s p p p p a d p z r ^.#X,X*XOX*XOXS.Z.m.v.M.Z.S.,X;X-X%XOXD.OX+X;X",
";XF.S.D.D.S.S.;X<XrXF.D.D.D.OXA.A.M.d.h.g.r.^ X p s g d d d g d s d d p d d p X o e.{.8X1X1X,XoXS.Z.m.v.v.Z.S.,X,X%XS.D.D.F.-XtX",
":X;X;XS.S.OXD.S.;X-XF.-XtXtXoXS.A.v.M.h.E.0 X d Z Z g Z / g Z Z Z v d v d v v c z O @.#X,X;X;X%XD.`.|.A.A.v.v.C.C.A.A.S.;X;X;X:X",
"%XF.OXD.|.A.Z.A.].OXS.;XtXrXoXD.S.D.A.'.}.U X Z v Z g Z Z Z / Z v d Z g p d v d c X #.#XOXF.].A.A.S.A.D.D.D.S.S.A.Z.Z.|.D.D.F.%X",
"OXoXC.Z.m.m.v.m.Z.].S.OX%X%XD.S.D.S.A.`.@XU y V s s d d d d d d s s d s s s p c C   #.}.'.v.n.Z.].S.D.D.oXF.*XS.A.A.m.m.m.Z.OX%X",
";XD.v.k.v.M.M.m.m.'.[.A.A.S.S.A.].A.Z.n.}.U k Z a a p p p d d d d d a p s d s c c X #.}._.s.s.h.A.A.OX;X;X;X+XA.Z.A.M.m.n.M.A.`.",
"D.oX,XoXS.v.A.v.d.d.s.s.s.'.A.D.A.v.v.n.3XP y A a p p p a p p s a p a p a a c c C a ;.^.f.h.h.s.d.d.A.S.D.A.A.d.d.a.d.`.A.M.A.Z.",
"S.OX1X*X%XD.oXA.Z.s.s.g.s.Z.A.A.A.Z.A.Q.Y b C C y   p a p s d s s p d p p a y c A y L ~ {.Z.Z.Z.d.Z.A.S.].].A.d.d.d.Z.|.A.Z.Z.Z.",
"v.`.,X,X;X,X;XOXA.d.p.s.s.s.A.|.A.|.OXW.. b A C a L T X z z k k X a a a X ( z k A c k < }.`.A.A.v.].D.OX].S.A.d.d.d.`..XOXD.Z.A.",
"v.M.v.v.v.*XOXD.S.A.M.d.d.Z.`.`.S.,X+Xb.< b A c 2 >.P.% : 4 4 4 : 1 1 ; > 5X0 z c C c < }.`.A.S.,X,X,X<X,XoX].'.Z.M.OXOXOXC.v.v.",
"Z.m.M.Z.A.OXoX*X;X,X.XA.A.Z.Z.A.;X1X,XQ.< c V c P.~.~.I o.1.).x.1.X.R M w 9X4X,.c c c < }.A.A.D.oXF.;X-X;XD.A.A.A.M.v.A.D.S.C.A.",
"A.v.v.A.A.S.*X,X<X<X1XoXA.m.v.Z.,XtX1X}.< c c v T.:.T x M R 1.X.R M l l 1 ;.^.e.k V k < }.A.S.A.A.A.oX;XF.S.A.`.m.M.v.A.A.`.A.`.",
";XoXOX].].A.S.S.F.%X;XOXA.v.v.v.D.,XyX}.X c c k K.E < - h k - k k k k k X < P.,.h V h ; Q.v.A.D.OXS.S.D.D.D.A.M.M.M.A.D.A.S.A.OX",
"-X;XD.A.'.Z.n.Z.A.].OX].D.A.Z.C.S.OX*XQ.; k c y X X a k c c c j j j c c a p X a u c h ; b.v.C.A.S.*XoXS.S.A.Z.M.M.v.D.*X;X;XS.A.",
"tX-XOX`.n.a.d.d.v.A.S.OX+XoXoXD.S.D.A.b.w l k h y a a s c V c s V V C u s p a a h k b w !.C.S.A.;X,X-X;X*XOXZ.m.S.*X;X<XtX<X*X*X",
"<X<X;XA.d.s.d.d.h.Z.S.*X<X;X;XoXS.A.|.b.4 I W -   s c s V V c c c s C c a p a y k B M , '.S.A.D.tXtX<X<X,XoXS.S.;X,XtXrXtX<X,X,X",
"F.D.S.A.'.Z.d.A.].A.S.OX%XD.D.S.A.`.`.a.# <.4.- y c V f V V u c V s c c a d a a < ;.P % '.A.A.].D.D.D.D.D.S.S.S.D.D.tXtX-XD.D.D.",
"D.D.S.S.].A.v.A.S.S.S.D.oXS.D.A.A.A.OXA.b.w < a a s V V V D s S C s c s s c p p X < Y u._.Z.Z.Z.Z.S.D.%X%X%X%X%XD.D.;X*XoXD.A.D.",
"A.D.OXS.OXS.A.A.OXS.A.D.A.S.A.A.A.A.S.].#Xw.E a a s V V S S s C c u c c a d a p k ) w.f.h.s.h.d.Z.A.oX,X,X,XtX;XOX].A.A.A.A.D.D.",
"C.*X1XrX1XS.D.`.A.M.M.v.M.v.M.v.v.A.+X*X<XyX(.X p s V G G V u c c s c c s c s a < (.}.Z.d.d.n.'.A.A.S.S.S.oX,XS.].A.M.M.M.M.S.S.",
"V.OX*X;X;XS.S.A.A.m.M.M.M.m.Z.Z.v.A.+X,XtX7XT.X a s V G G V u C V c V c u c s y ; 3X#X`.n.h.Z.A.`.A.A.S.S.oX;XD.].A.v.M.M.v.m.Z.",
"V.S.S.S.D.S.F.A.A.Z.v.v.v.S.S.A.v.A.OX,X<X>XI.X a s V G G V j V V V V V s c s a < 5X7X+XA.A.A.S.`.A.A.A.S.D.S.S.S.S.A.v.v.v.M.M.",
"A.F.,X<X<X<X1XOXA.D.,X1XrX1XOXS.v.v.Z.Z.>X9.E X a s V G G S V S V V S S V s c a < $.t.'.`.A.A.A.A.M.v.v.S.oXoX;X;X;X;XD.A.A.`.`.",
"A.A.D.S.F.tXtXOXS.A.D.;XtXrXoXD.A.A.A.[.}.r X a s V S G G D V S V V G G C s s c a . ! '.'.d.Z.`.`.M.v.v.A.D.D.;X;X*XD.A.A.`.`.`.",
"Z.A.S.D.S.;XOXA.Z.`.S.oX;X;XoXA.m.Z.A._.{.U a u f V S G S V V S V V G F C s s s p X ~ {._.d.n.Z.A.Z.C.C.S.S.D.oXoXD.Z.Z.Z.Z.A.`.",
"C.A.A.A.A.A.v.M.m.`.A.D.D.D.S.A.v.v.v.n.W.P a s f V F G V C V V V V D S V u s s y   ~ Y.g.h.d.d.S.S.S.S.A.A.A.A.S.Z.d.s.h.h.'.`.",
"V.S.D.C.v.v.v.M.n.m.`.S.OX*XS.`.A.A.m.f.:.x a s V G G V c V S G V V D D V u s a a a K :.f.'.'.OX,X<X<X,XS.A.A.A.Z.d.Z.h.s.h.d.v.",
"S.S.A.A.A.Z.Z.m.m.v.A.S.%X;XoXS.A.`.A.i.. a y c S G G V c V D H.D C D D V u u s c a a O Q.A.S.S.%X<XtXtXS.A.A.A.A.v.Z.Z.n.n.m.v.",
"A.A.A.D.OXOXD.A.A.v.A.A.].OXOXD.A.`.}.Y.X a y s G D D V c V D J.G D S S V c s c c d a X 3X`.A.S.F.<X,X,XS.m.M.Z.Z.A.`.A.`.A.A.D.",
"S.OX1X1X<X<XD.D.A.Z.d.s.s.d.A.`.].'.U.) p p u V G D F s s V D J.G V c C V V u u s c s X ;.f.'.A.A.S.A.A.A.Z.M.v.m.A.OXA.A.S.D.S.",
"S.S.%X<X<X;X%XD.S.d.s.s.s.a.Z.`.'.f.U < X a s C H.G S u s V G H.G V u V V G V s s a a a < :.f.`.A.Z.Z.Z.Z.n.v.m.A.A.+X+XA.S.A.A.",
"A.A.S.;X<X;XtX;XOXv.h.s.h.d.A._.f.$ $ : + ; l A G V c u s V D G G V u s V S S V y y a z < ; r }.A.v.d.d.d.n.m.Z.A.S.1X,XS.A.d.A.",
"v.D.S.S.S.S.S.;X*X&X[.[.[.'.M.n.t.$ e 1./.*.N m B n k - k l B B J b k k c C H n k - < b x ; r b.`.A.Z.s.d.[.A.S.+X,X,X,XD.Z.d.d.",
"OXD.S.v.v.v.v.S.%X<X,X,X].A.v.M.t.r  .o.l.&.} &.O. .7 5 ` ' +.5.&.+.7 6 1 N | |  .8 m x 3 w @.`.A.A.Z.s.s.[.A.A.A.OXS.S.S.A.A.].",
"%XF.D.v.v.v.m.S.F.<X<X;XS.OXC.m.n.!.t # # 6.c.qXx.=.=.o.3.6.B.qX0Xl.o. .6 X.o.1.2. .6 : > w._.`.`.Z.h.s.s.Z.Z.S.A.Z.`.A.Z.A.A.].",
"G.F.S.v.v.Z.D.S.F.1X<XF.S.,XOXS.A.`.#X$X$Xt @ $ ; ; ; ; ; $ $ % % + ; ; ; ; ; ; ; $ Q W.Q.'.|.A.`.d.h.h.h.s.v.A.Z.v.A.Z.V.A.D.D.",
"-X<XtXOXA.OXtX<X<X<X<XoXS.OXS.A.A.A.A.`.'.t.e.y.K.e.>.:.e.e.L.I.L.y.y.,.>.>.>.>.>.:.t._.'.|.A.S.OXA.Z.h.h.Z.`.OXZ.v.M.m.A.A.S.S.",
";X;X;XD.D.D.;X;X;XoX%XD.A.A.A.A.Z.n.Z.Z.Z.'.}.}.}.Q.b.f.'.#X$X$X.X@X'.b.b.b._._.Q.m.m.`.`.OXOXF.D.A.Z.v.A.].*XS.A.m.M.M.m.m.A.].",
"OXOXS.S.C.D.D.D.A.k.k.Z.A.A.A.Z.a.p.a.a.s.Z.A.`.`.m.M.v.A.A.`.S.A.A.A.v.m.v.D.S.A.D.A.A.A.,X,X;XoXS.S.S.1X1X1XS.Z.M.a.a.a.a.Z.A.",
"A.A.S.%X*XrX1X*XA.v.v.A.A.A.d.s.p.p.n.A.Z.v.v.A.A.A.`.A.A.'.A.n.d.n.A.,XtX<XtXtXyX1X;XS.d.M.v.A.S.S.*X<X<X<XrX1X`.v.d.d.p.p.p.p.",
"m.A.OX,X<XrXyX*XOXOXOX`.OX].h.h.h.s.Z.`.A.v.Z.].OXD.`.`.Z.Z.n.h.h._.OXD.F.C.%X;X;XF.F.S.m.m.A.D.D.D.;X-XF.F.S.S.Z.Z.Z.d.p.p.p.g."
};
